<?xml version="1.0" encoding="UTF-8"?>
<map version="1.10" tiledversion="1.12.1" orientation="orthogonal" renderorder="right-down" width="240" height="80" tilewidth="16" tileheight="16" infinite="0" nextlayerid="8" nextobjectid="400">
 <tileset firstgid="1" source="forest si.tsx"/>
 <layer id="1" name="platform" width="240" height="80">
  <data encoding="csv">
1697,1698,1698,1698,1698,1698,1698,1698,1698,1698,1698,1698,1698,1698,1698,1698,1698,1698,1698,1698,1698,1698,1698,1698,1698,1698,1698,1698,1698,1698,1698,1698,1698,1698,1698,1698,1698,1698,1698,1698,1698,1698,1698,1698,1698,1698,1698,1698,1698,1698,1698,1698,1698,1698,1698,1698,1698,1698,1698,1698,1698,1698,1698,1698,1698,1698,1698,1698,1698,1698,1698,1698,1698,1698,1698,1698,1698,1698,1698,1698,1698,1698,1698,1698,1698,1698,1698,1698,1698,1698,1698,1698,1698,1698,1698,1698,1698,1698,1698,1698,1698,1698,1698,1698,1698,1698,1698,1698,1698,1698,1698,1698,1698,1698,1698,1698,1698,1698,1698,1698,1698,1698,1698,1698,1698,1698,1698,1698,1698,1698,1698,1698,1698,1698,1698,1698,1698,1698,1698,1698,1698,1698,1698,1698,1698,1698,1698,1698,1698,1698,1698,1698,1698,1698,1698,1698,1698,1698,1698,1698,1698,1698,1698,1698,1698,1698,1698,1698,1698,1698,1698,1698,1698,1698,1698,1698,1698,1698,1698,1698,1698,1698,1698,1698,1698,1698,1698,1698,1698,1698,1698,1698,1698,1698,1698,1698,1698,1698,1698,1698,1698,1698,1698,1698,1698,1698,1698,1698,1698,1698,1698,1698,1698,1698,1698,1698,1698,1698,1698,1698,1698,1698,1698,1698,1698,1698,1698,1698,1698,1698,1698,1698,1698,1698,1698,1698,1698,1698,1698,1697,
1697,0,0,0,0,0,0,0,0,0,0,0,0,0,0,0,0,0,0,0,0,0,0,0,0,0,0,0,0,0,0,0,0,0,0,0,0,0,0,0,0,0,0,0,0,0,0,0,0,0,0,0,0,0,0,0,0,0,0,0,0,0,0,0,0,0,0,0,0,0,0,0,0,0,0,0,0,0,0,0,0,0,0,0,0,0,0,0,0,0,0,0,0,0,0,0,0,0,0,0,0,0,0,0,0,0,0,0,0,0,0,0,0,0,0,0,0,0,0,0,0,0,0,0,0,0,0,0,0,0,0,0,0,0,0,0,0,0,0,0,0,0,0,0,0,0,0,0,0,0,0,0,0,0,0,0,0,0,0,0,0,0,0,0,0,0,0,0,0,0,0,0,0,0,0,0,0,0,0,0,0,0,0,0,0,0,0,0,0,0,0,0,0,0,0,0,0,0,0,0,0,0,0,0,0,0,0,0,0,0,0,0,0,0,0,0,0,0,0,0,0,0,0,0,0,0,0,0,0,0,0,48,49,50,51,52,53,54,55,1697,
1697,0,0,0,0,0,0,0,0,0,0,0,0,0,0,0,0,0,0,0,0,0,0,0,0,0,0,0,0,0,0,0,0,0,0,0,0,0,0,0,0,0,0,0,0,0,0,0,0,0,0,0,0,0,0,0,0,0,0,0,0,0,0,0,0,0,0,0,0,0,0,0,0,0,0,0,0,0,0,0,0,0,0,0,0,0,0,0,0,0,0,0,0,0,0,0,0,0,0,0,0,0,0,0,0,0,0,0,0,0,0,0,0,0,0,0,0,0,0,0,0,0,0,0,0,0,0,0,0,0,0,0,0,0,0,0,0,0,0,0,0,0,0,0,0,0,0,0,0,0,0,0,0,0,0,0,0,0,0,0,0,0,0,0,0,0,0,0,0,0,0,0,0,0,0,0,0,0,0,0,0,0,0,0,0,0,0,0,0,0,0,0,0,0,0,0,0,0,0,0,0,0,0,0,0,0,0,0,0,0,0,0,0,0,0,0,0,0,0,0,0,0,0,0,0,0,0,0,0,0,0,105,106,107,108,109,110,111,112,1697,
1697,0,0,0,0,0,0,0,0,0,0,0,0,0,0,0,0,0,0,0,0,0,0,0,0,0,0,0,0,0,0,0,0,0,0,0,0,0,0,0,0,0,0,0,0,0,0,0,0,0,0,0,0,0,0,0,0,0,0,0,0,0,0,0,0,0,0,0,0,0,0,0,0,0,0,0,0,0,0,0,0,0,0,0,0,0,0,0,0,0,0,0,0,0,0,0,0,0,0,0,0,0,0,0,0,0,0,0,0,0,0,0,0,0,0,0,0,0,0,0,0,0,0,0,0,0,0,0,0,0,0,0,0,0,0,0,0,0,0,0,0,0,0,0,0,0,0,0,0,0,0,0,0,0,0,0,0,0,0,0,0,0,0,0,0,0,0,0,0,0,0,0,0,0,0,0,0,0,0,0,0,0,0,0,0,0,0,0,0,0,0,0,0,0,0,0,0,0,0,0,0,0,0,0,0,0,0,0,0,0,0,0,0,0,0,0,0,0,0,0,0,0,0,0,0,0,0,0,0,0,0,162,163,164,165,166,167,168,169,1697,
1697,0,0,0,0,0,0,0,0,0,0,0,0,0,0,0,0,0,0,0,0,0,0,0,0,0,0,0,0,0,0,0,0,0,0,0,0,0,0,0,0,0,0,0,0,0,0,0,0,0,0,0,0,0,0,0,0,0,0,0,0,0,0,0,0,0,0,0,0,0,0,0,0,0,0,0,0,0,0,0,0,0,0,0,0,0,0,0,0,0,0,0,0,0,0,0,0,0,0,0,0,0,0,0,0,0,0,0,0,0,0,0,0,0,0,0,0,0,0,0,0,0,0,0,0,0,0,0,0,0,0,0,0,0,0,0,0,0,0,0,0,0,0,0,0,0,0,0,0,0,0,0,0,0,0,0,0,0,0,0,0,0,0,0,0,0,0,0,0,0,0,0,0,0,0,0,0,0,0,0,0,0,0,0,0,0,0,0,0,0,0,0,0,0,0,0,0,0,0,0,0,0,0,0,0,0,0,0,0,0,0,0,0,0,0,0,0,0,0,0,0,0,0,0,0,0,0,0,0,0,0,219,220,221,222,223,224,225,226,1697,
1697,0,0,0,0,0,0,0,0,0,0,0,0,0,0,0,0,0,0,0,0,0,0,0,0,0,0,0,0,0,0,0,0,0,0,0,0,0,0,0,0,0,0,0,0,0,0,0,0,0,0,0,0,0,0,0,0,0,0,0,0,0,0,0,0,0,0,0,0,0,0,0,0,0,0,0,0,0,0,0,0,0,0,0,0,0,0,0,0,0,0,0,0,0,0,0,0,0,0,0,0,0,0,0,0,0,0,0,0,0,0,0,0,0,0,0,0,0,0,0,0,0,0,0,0,0,0,0,0,0,0,0,0,0,0,0,0,0,0,0,0,0,0,0,0,0,0,0,0,0,0,0,0,0,0,0,0,0,0,0,0,0,0,0,0,0,0,0,0,0,0,0,0,0,0,0,0,0,0,0,0,0,0,0,0,0,0,0,0,0,0,0,0,0,0,0,0,0,0,0,0,0,0,0,0,0,0,0,0,0,0,0,0,0,0,0,0,0,0,0,0,0,0,0,0,0,0,0,0,0,0,276,277,278,279,280,281,282,283,1697,
1697,0,0,0,0,0,0,0,0,0,0,0,0,0,0,0,0,0,0,0,0,0,0,0,0,0,0,0,0,0,0,0,0,0,0,0,0,0,0,0,0,0,0,0,0,0,0,0,0,0,0,0,0,0,0,0,0,0,0,0,0,0,0,0,0,0,0,0,0,0,0,0,0,0,0,0,0,0,0,0,0,0,0,0,0,0,0,0,0,0,0,0,0,0,0,0,0,0,0,0,0,0,0,0,0,0,0,0,0,0,0,0,0,0,0,0,0,0,0,0,0,0,0,0,0,0,0,0,0,0,0,0,0,0,0,0,0,0,0,0,0,0,0,0,0,0,0,0,0,0,0,0,0,0,0,0,0,0,0,0,0,0,0,0,0,0,0,0,0,0,0,0,0,0,0,0,0,0,0,0,0,0,0,0,0,0,0,0,0,0,0,0,0,0,0,0,0,0,0,0,0,0,0,0,0,0,0,0,0,0,0,0,0,0,0,0,0,0,0,0,0,0,0,0,0,0,0,0,0,0,0,333,334,335,336,337,338,339,340,1697,
1697,0,0,0,0,0,0,0,0,0,0,0,0,0,0,0,0,0,0,0,0,0,0,0,0,0,0,0,0,0,0,0,0,0,0,0,0,0,0,0,0,0,0,0,0,0,0,0,0,0,0,0,0,0,0,0,0,0,0,0,0,0,0,0,0,0,0,0,0,0,0,0,0,0,0,0,0,0,0,0,0,0,0,0,0,0,0,0,0,0,0,0,0,0,0,0,0,0,0,0,0,0,0,0,0,0,0,0,0,0,0,0,0,0,0,0,0,0,0,0,0,0,0,0,0,0,0,0,0,0,0,0,0,0,0,0,0,0,0,0,0,0,0,0,0,0,0,0,0,0,0,0,0,0,0,0,0,0,0,0,0,0,0,0,0,0,0,0,0,0,0,0,0,0,0,0,0,0,0,0,0,0,0,0,0,0,0,0,0,0,0,0,0,0,0,0,0,0,0,0,0,0,0,0,0,0,0,0,0,0,0,0,0,0,0,0,0,0,0,0,0,0,0,0,0,0,0,0,0,0,0,390,391,392,393,394,395,396,397,1697,
1697,0,0,0,0,0,0,0,0,0,0,0,0,0,0,0,0,0,0,0,0,0,0,0,0,0,0,0,0,0,0,0,0,0,0,0,0,0,0,0,0,0,0,0,0,0,0,0,0,0,0,0,0,0,0,0,0,0,0,0,0,0,0,0,0,0,0,0,0,0,0,0,0,0,0,0,0,0,0,0,0,0,0,0,0,0,0,0,0,0,0,0,0,0,0,0,0,0,0,0,0,0,0,0,0,0,0,0,0,0,0,0,0,0,0,0,0,0,0,0,0,0,0,0,0,0,0,0,0,0,0,0,0,0,0,0,0,0,0,0,0,0,0,0,0,0,0,0,0,0,0,0,0,0,0,0,0,0,0,0,0,0,0,0,0,0,0,0,0,0,0,0,0,0,0,0,0,0,0,0,0,0,0,0,0,0,0,0,0,0,0,0,0,0,0,0,0,0,0,0,0,0,0,0,0,0,0,0,0,0,0,0,0,0,0,0,0,0,0,0,0,0,0,0,0,0,0,0,0,0,0,447,448,449,450,451,452,453,454,1697,
1697,0,0,0,0,0,0,0,0,0,0,0,0,0,0,0,0,0,0,0,0,0,0,0,0,0,0,0,0,0,0,0,0,0,0,0,0,0,0,0,0,0,0,0,0,0,0,0,0,0,0,0,0,0,0,0,0,0,0,0,0,0,0,0,0,0,0,0,0,0,0,0,0,0,0,0,0,0,0,0,0,0,0,0,0,0,0,0,0,0,0,0,0,0,0,0,0,0,0,0,0,0,0,0,0,0,0,0,0,0,0,0,0,0,0,0,0,0,0,0,0,0,0,0,0,0,0,0,0,0,0,0,0,0,0,0,0,0,0,0,0,0,0,0,0,0,0,0,0,0,0,0,0,0,0,0,0,0,0,0,0,0,0,0,0,0,0,0,0,0,0,0,0,0,0,0,0,0,0,0,0,0,0,0,0,0,0,0,0,0,0,0,0,0,0,0,0,0,0,0,0,0,0,0,0,0,0,0,0,0,0,0,0,0,0,0,0,0,0,0,0,0,0,0,0,0,0,0,0,0,0,504,505,506,507,508,509,510,511,1697,
1697,0,0,0,0,0,0,0,0,0,0,0,0,0,0,0,0,0,0,0,0,0,0,0,0,0,0,0,0,0,0,0,0,0,0,0,0,0,0,0,0,0,0,0,0,0,0,0,0,0,0,0,0,0,0,0,0,0,0,0,0,0,0,0,0,0,0,0,0,0,0,0,0,0,0,0,0,0,0,0,0,0,0,0,0,0,0,0,0,0,0,0,0,0,0,0,0,0,0,0,0,0,0,0,0,0,0,0,0,0,0,0,0,0,0,0,0,0,0,0,0,0,0,0,0,0,0,0,0,0,0,0,0,0,0,0,0,0,0,0,0,0,0,0,0,0,0,0,0,0,0,0,0,0,0,0,0,0,0,0,0,0,0,0,0,0,0,0,0,0,0,0,0,0,0,0,0,0,0,0,0,0,0,0,0,0,0,0,0,0,0,0,0,0,0,0,0,0,0,0,0,0,0,0,0,0,0,0,0,0,0,0,0,0,0,0,0,0,0,0,0,0,0,0,0,0,0,0,0,0,0,561,562,563,564,565,566,567,568,1697,
1697,0,0,0,0,0,0,0,0,0,0,0,0,0,0,0,0,0,0,0,0,0,0,0,0,0,0,0,0,0,0,0,0,0,0,0,0,0,0,0,0,0,0,0,0,0,0,0,0,0,0,0,0,0,0,0,0,0,0,0,0,0,0,0,0,0,0,0,0,0,0,0,0,0,0,0,0,0,0,0,0,0,0,0,0,0,0,0,0,0,0,0,0,0,0,0,0,0,0,0,0,0,0,0,0,0,0,0,0,0,0,0,0,0,0,0,0,0,0,0,0,0,0,0,0,0,0,0,0,0,0,0,0,0,0,0,0,0,0,0,0,0,0,0,0,0,0,0,0,0,0,0,0,0,0,0,0,0,0,0,0,0,0,0,0,0,0,0,0,0,0,0,0,0,0,0,0,0,0,0,0,0,0,0,0,0,0,0,0,0,0,0,0,0,0,0,0,0,0,0,0,0,0,0,0,0,0,0,0,0,0,0,0,0,0,0,0,0,0,0,0,0,0,0,0,0,0,0,0,0,0,0,0,0,0,0,0,0,0,1697,
1697,0,0,0,0,0,0,0,0,0,0,0,0,0,0,0,0,0,0,0,0,0,0,0,0,0,0,0,0,0,0,0,0,0,0,0,0,0,0,0,0,0,0,0,0,0,0,0,0,0,0,0,0,0,0,0,0,0,0,0,0,0,0,0,0,0,0,0,0,0,0,0,0,0,0,0,0,0,0,0,0,0,0,0,0,0,0,0,0,0,0,0,0,0,0,0,0,0,0,0,0,0,0,0,0,0,0,0,0,0,0,0,0,0,0,0,0,0,0,0,0,0,0,0,0,0,0,0,0,0,0,0,0,0,0,0,0,0,0,0,0,0,0,0,0,0,0,0,0,0,0,0,0,0,0,0,0,0,0,0,0,0,0,0,0,0,0,0,0,0,0,0,0,0,0,0,0,0,0,0,0,0,0,0,0,0,0,0,0,0,0,0,0,0,0,0,0,0,0,0,0,0,0,0,0,0,0,0,0,0,0,0,0,0,0,0,0,0,0,0,0,0,0,0,0,0,0,0,0,0,0,0,0,0,0,0,0,0,0,1697,
1697,0,0,0,0,0,0,0,0,0,0,0,0,0,0,0,0,0,0,0,0,0,0,0,0,0,0,0,0,0,0,0,0,0,0,0,0,0,0,0,0,0,0,0,0,0,0,0,0,0,0,0,0,0,0,0,0,0,0,0,0,0,0,0,0,0,0,0,0,0,0,0,0,0,0,0,0,0,0,0,0,0,0,0,0,0,0,0,0,0,0,0,0,0,0,0,0,0,0,0,0,0,0,0,0,0,0,0,0,0,0,0,0,0,0,0,0,0,0,0,0,0,0,0,0,0,0,0,0,0,0,0,0,0,0,0,0,0,0,0,0,0,0,0,0,0,0,0,0,0,0,0,0,0,0,0,0,0,0,0,0,0,0,0,0,0,0,0,0,0,0,0,0,0,0,0,0,0,0,0,0,0,0,0,0,0,0,0,0,0,0,0,0,0,0,0,0,0,0,0,0,0,0,0,0,0,0,0,0,0,0,0,0,0,0,0,0,0,0,0,0,0,0,0,0,0,0,0,0,0,0,0,0,0,0,0,0,0,0,1697,
1697,0,0,0,0,0,0,0,0,0,0,0,0,0,0,0,0,0,0,0,0,0,0,0,0,0,0,0,0,0,0,0,0,0,0,0,0,0,0,0,0,0,0,0,0,0,0,0,0,0,0,0,0,0,0,0,0,0,0,0,0,0,0,0,0,0,0,0,0,0,0,0,0,0,0,0,0,0,0,0,0,0,0,0,0,0,0,0,0,0,0,0,0,0,0,0,0,0,0,0,0,0,0,0,0,0,0,0,0,0,0,0,0,0,0,0,0,0,0,0,0,0,0,0,0,0,0,0,0,0,0,0,0,0,0,0,0,0,0,0,0,0,0,0,0,0,0,0,0,0,0,0,0,0,0,0,0,0,0,0,0,0,0,0,0,0,0,0,0,0,0,0,0,0,0,0,0,0,0,0,0,0,0,0,0,0,0,0,0,0,0,0,0,0,0,0,0,0,0,0,0,0,0,0,0,0,0,0,0,0,0,0,0,286,287,288,289,287,288,289,287,288,290,0,0,0,0,0,0,0,0,0,0,0,0,0,0,0,0,1697,
1697,0,0,0,0,0,0,0,0,0,0,0,0,0,0,0,0,0,0,0,0,0,0,0,0,0,0,0,0,0,0,0,0,0,0,0,0,0,0,0,0,0,0,0,0,0,0,0,0,0,0,0,0,0,0,0,0,0,0,0,0,0,0,0,0,0,0,0,0,0,0,0,0,0,0,0,0,0,0,0,0,0,0,0,0,0,0,0,0,0,0,0,0,0,0,0,0,0,0,0,0,0,0,0,0,0,0,0,0,0,0,0,0,0,0,0,0,0,0,0,0,0,0,0,0,0,0,0,0,0,0,0,0,0,0,0,0,0,0,0,0,0,0,0,0,0,0,0,0,0,0,0,0,0,0,0,0,0,0,0,0,0,0,0,0,0,0,0,0,0,0,0,0,0,0,0,0,0,0,0,0,0,0,0,0,0,0,0,0,0,0,0,0,0,0,0,0,0,0,0,0,0,0,0,0,0,0,0,0,0,0,0,0,514,515,516,517,515,516,517,515,516,518,0,0,0,0,0,0,0,0,0,0,0,0,0,0,0,0,1697,
1697,0,0,0,0,0,0,0,0,0,0,0,0,0,0,0,0,0,0,0,0,0,0,0,0,0,0,0,0,0,0,0,0,0,0,0,0,0,0,0,0,0,0,0,0,0,0,0,0,0,0,0,0,0,0,0,0,0,0,0,0,0,0,0,0,0,0,0,0,0,0,0,0,0,0,0,0,0,0,0,0,0,0,0,0,0,0,0,0,0,0,0,0,0,0,0,0,0,0,0,0,0,0,0,0,0,0,0,0,0,0,0,0,0,0,0,0,0,0,0,0,0,0,0,0,0,0,0,0,0,0,0,0,0,0,0,0,0,0,0,0,0,0,0,0,0,0,0,0,0,0,0,0,0,0,0,0,0,0,0,0,0,0,0,0,0,0,0,0,0,0,0,0,0,0,0,0,0,0,0,0,0,0,0,0,0,0,0,0,0,0,0,0,0,0,0,0,0,0,0,0,0,0,0,0,0,0,0,0,0,0,0,0,0,0,0,0,0,0,0,0,0,0,0,0,0,0,0,0,0,0,0,0,0,0,0,0,0,0,1697,
1697,0,0,0,0,0,0,0,0,0,0,0,0,0,0,0,0,0,0,0,0,0,0,0,0,0,0,0,0,0,0,0,0,0,0,0,0,0,0,0,0,0,0,0,0,0,0,0,0,0,0,0,0,0,0,0,0,0,0,0,0,0,0,0,0,0,0,0,0,0,0,0,0,0,0,0,0,0,0,0,0,0,0,0,0,0,0,0,0,0,0,0,0,0,0,0,0,0,0,0,0,0,0,0,0,0,0,0,0,0,0,0,0,0,0,0,0,0,0,0,0,0,0,0,0,0,0,0,0,0,0,0,0,0,0,0,0,0,0,0,0,0,0,0,0,0,0,0,0,0,0,0,0,0,0,0,0,0,0,0,0,0,0,0,0,0,0,0,0,0,0,0,0,0,0,0,0,0,0,0,0,0,0,0,0,0,0,0,0,0,0,0,0,0,0,0,0,0,0,0,0,0,0,0,0,0,0,0,0,0,0,0,0,0,0,0,0,0,0,0,0,0,0,0,0,0,0,0,0,0,0,0,0,0,0,0,0,0,0,1697,
1697,0,0,0,0,0,0,0,0,0,0,0,0,0,0,0,0,0,0,0,0,0,0,0,0,0,0,0,0,0,0,0,0,0,0,0,0,0,0,0,0,0,0,0,0,0,0,0,0,0,0,0,0,0,0,0,0,0,0,0,0,0,0,0,0,0,0,0,0,0,0,0,0,0,0,0,0,0,0,0,0,0,0,0,0,0,0,0,0,0,0,0,0,0,0,0,0,0,0,0,0,0,0,0,0,0,0,0,0,0,0,0,0,0,0,0,0,0,0,0,0,0,0,0,0,0,0,0,0,0,0,0,0,0,0,0,0,0,0,0,0,0,0,0,0,1198,1199,1200,1201,1199,1202,0,0,0,0,0,0,0,0,0,0,0,0,0,0,0,0,0,0,0,0,0,0,0,0,0,0,0,0,0,0,0,0,0,0,0,0,0,0,0,0,0,0,0,0,0,0,0,0,0,0,0,0,0,0,0,0,0,0,0,0,0,0,0,0,0,0,0,0,0,0,0,0,0,0,0,0,0,0,0,0,0,0,0,0,0,0,0,0,1697,
1697,0,0,0,0,0,0,0,0,0,0,0,0,0,0,0,0,0,0,0,0,0,0,0,0,0,0,0,0,0,0,0,0,0,0,0,0,0,0,0,0,0,0,0,0,0,0,0,0,0,0,0,0,0,0,0,0,0,0,0,0,0,0,0,0,0,0,0,0,0,0,0,0,0,0,0,0,0,0,0,0,0,0,0,0,0,0,0,0,0,0,0,0,0,0,0,0,0,0,0,0,0,0,0,0,0,0,0,0,0,0,0,0,0,0,0,0,0,0,0,0,0,0,0,0,0,0,0,0,0,0,0,0,0,0,0,0,0,0,0,0,0,0,0,0,1255,1256,1257,1258,1256,1259,0,0,0,0,0,0,0,0,0,0,0,0,0,0,0,0,0,0,0,0,0,0,0,0,0,0,0,0,0,0,0,0,0,0,0,0,0,0,0,0,0,0,0,0,0,0,0,0,0,0,0,0,0,0,0,0,0,0,0,0,0,0,0,0,0,0,0,0,0,0,0,0,0,0,0,0,0,0,0,0,0,0,0,0,0,0,0,0,1697,
1697,0,0,0,0,0,0,0,0,0,0,0,0,0,0,0,0,0,0,0,0,0,0,0,0,0,0,0,0,0,0,0,0,0,0,0,0,0,0,0,0,0,0,0,0,0,0,0,0,0,0,0,0,0,0,0,0,0,0,0,0,0,0,58,59,60,61,59,60,61,59,60,61,59,60,61,59,60,61,59,60,61,59,60,61,59,60,61,59,60,61,59,60,61,59,60,61,59,60,61,62,0,0,0,0,0,0,0,0,0,0,0,0,0,0,0,0,0,0,0,0,0,0,0,0,0,0,0,0,0,0,0,0,0,0,0,0,0,0,0,0,0,0,0,0,0,0,0,0,0,0,0,0,0,0,0,0,0,0,0,0,0,0,0,0,0,0,0,0,0,0,0,0,0,0,0,0,0,0,0,0,0,0,0,0,0,0,0,0,0,0,0,0,0,0,0,0,0,0,0,0,0,0,0,0,0,0,0,0,0,0,0,0,0,0,0,0,0,0,0,0,0,0,0,0,0,0,0,0,0,0,0,0,0,0,0,0,0,0,1697,
1697,0,0,0,0,0,0,0,0,0,0,0,0,0,0,0,0,0,0,0,0,0,0,0,0,0,0,0,0,0,0,0,0,0,0,0,0,0,0,0,0,0,0,0,0,0,0,0,0,0,0,0,0,0,0,0,0,0,0,0,0,0,0,0,0,0,0,0,0,0,0,0,0,0,0,0,0,0,0,0,0,0,0,0,0,0,0,0,0,0,0,0,0,0,0,0,0,0,0,0,0,0,0,0,0,0,0,0,0,0,0,0,0,0,0,0,0,0,0,0,0,0,0,0,0,0,0,0,0,0,0,0,0,0,0,0,0,0,0,0,0,0,0,0,0,0,0,0,0,0,0,0,0,0,0,0,0,0,0,0,0,0,0,0,0,0,0,0,0,0,0,0,0,0,0,0,0,0,0,0,0,0,0,0,0,0,0,0,0,0,0,0,0,0,0,0,0,0,0,0,0,0,0,0,0,0,0,0,0,0,0,0,0,0,0,0,0,0,0,0,0,0,0,0,0,0,0,0,0,0,0,0,0,0,0,0,0,0,0,1697,
1697,0,0,0,0,0,0,0,0,0,0,0,0,0,0,0,0,0,0,0,0,0,0,0,0,0,0,0,0,0,0,0,0,0,0,0,0,0,0,0,0,0,0,0,0,0,0,0,0,0,0,0,0,0,0,0,0,0,0,0,0,0,0,0,0,0,0,0,0,0,0,0,0,0,0,0,0,0,0,0,0,0,0,0,0,0,0,0,0,0,0,0,0,0,0,0,0,0,0,0,0,0,0,0,0,0,0,0,0,0,0,0,0,0,0,0,0,0,0,0,0,0,0,0,0,0,0,0,1198,1199,1200,1201,1202,0,0,0,0,0,0,0,0,0,0,0,0,0,0,0,0,0,0,0,0,0,0,0,0,0,0,0,0,0,0,0,0,0,0,0,0,0,0,0,0,0,0,0,0,0,0,0,0,0,0,0,0,0,0,0,0,0,0,0,0,0,0,0,0,0,0,0,0,0,0,0,0,0,0,0,0,0,0,0,0,0,0,0,0,0,0,0,0,0,0,0,0,0,0,0,0,0,0,0,0,0,0,0,0,0,0,1697,
1697,0,0,0,0,0,0,0,0,0,0,0,0,0,0,0,0,0,0,0,0,0,0,0,0,0,0,0,0,0,0,0,0,0,0,0,0,0,0,0,0,0,0,0,0,0,0,0,0,0,0,0,0,0,0,0,0,0,0,0,0,0,0,0,0,0,0,0,0,0,0,0,0,0,0,0,0,0,0,0,0,0,0,0,0,0,0,0,0,0,0,0,0,0,0,0,0,0,0,0,0,0,0,0,0,0,0,0,0,0,0,0,0,0,0,0,0,0,0,0,0,0,0,0,0,0,0,0,1255,1256,1257,1258,1259,0,0,0,0,0,0,0,0,0,0,0,0,0,0,0,0,0,0,0,0,0,0,0,0,0,0,0,0,0,0,0,0,0,0,0,0,0,0,0,0,0,0,0,0,0,0,0,0,0,0,0,0,0,0,0,0,0,0,0,0,0,0,0,0,0,0,0,0,0,0,0,0,0,0,0,0,0,0,0,0,0,0,0,0,0,0,0,0,0,0,0,0,0,0,0,0,0,0,0,0,0,0,0,0,0,0,1697,
1697,0,0,0,0,0,0,0,0,0,0,0,0,0,0,0,0,0,0,0,0,0,0,0,0,0,0,0,0,0,0,0,0,0,0,0,0,0,0,0,0,0,0,0,0,0,0,0,0,0,0,0,0,0,0,0,0,0,0,0,0,0,0,0,0,0,0,0,0,0,0,0,0,0,0,0,0,0,0,0,0,0,0,0,0,0,0,0,0,0,0,0,0,0,0,0,0,0,0,0,0,0,0,0,0,0,0,0,0,0,0,0,0,0,0,0,0,0,0,0,0,0,0,0,0,0,0,0,0,0,0,0,0,0,0,0,0,0,0,0,0,0,0,0,0,0,0,0,0,0,0,0,0,0,0,0,0,0,0,0,0,0,0,0,0,0,0,0,0,0,0,0,0,0,0,0,0,0,0,0,0,0,0,0,0,0,0,0,0,0,0,0,0,0,0,0,0,0,0,0,0,0,0,0,0,0,0,0,0,0,0,0,0,0,0,0,0,0,0,0,0,0,0,0,0,0,0,0,0,0,0,0,0,0,0,0,0,0,0,1697,
1697,0,0,0,0,0,0,0,0,0,0,0,0,0,0,0,0,0,0,0,0,0,0,0,0,0,0,0,0,0,0,0,0,0,0,0,0,0,0,0,0,0,0,0,0,0,0,0,0,0,0,0,0,0,0,0,0,0,0,0,0,0,0,0,0,0,0,0,0,0,0,0,0,0,0,0,0,0,0,0,0,0,0,0,0,0,0,0,0,0,0,0,0,0,0,0,0,0,0,0,0,0,0,0,0,0,0,0,0,0,0,0,0,0,0,0,0,0,0,0,0,0,0,0,0,0,0,0,0,0,0,0,0,0,0,0,0,0,0,0,0,0,0,0,0,0,0,0,0,0,0,0,0,0,0,0,0,0,0,0,0,0,0,0,0,0,0,0,0,0,0,0,0,0,0,0,0,0,0,0,0,0,0,0,0,0,0,0,0,0,0,0,0,0,0,0,0,0,0,0,0,0,0,0,0,0,0,0,0,0,0,0,0,0,0,0,0,0,0,0,0,0,0,0,0,0,0,0,0,0,0,0,0,0,0,0,0,0,0,1697,
1697,0,0,0,0,0,0,0,0,0,0,0,0,0,0,0,0,0,0,0,0,0,0,0,0,0,0,0,0,0,0,0,0,0,0,0,0,0,0,0,0,0,0,0,0,0,0,0,0,0,0,0,0,0,0,0,0,0,0,0,0,0,0,0,0,0,0,0,0,0,0,0,0,0,0,0,0,0,0,0,0,0,0,0,0,0,0,0,0,0,0,0,0,0,0,0,0,0,0,0,0,0,0,0,0,0,0,0,0,0,1198,1199,1200,1201,1202,0,0,0,0,0,0,0,0,0,0,0,0,0,0,0,0,0,0,0,0,0,0,0,0,0,0,0,0,0,0,0,0,0,0,0,0,0,0,0,0,0,0,0,0,0,0,0,0,0,0,0,0,0,0,0,0,0,0,0,0,0,0,0,0,0,0,0,0,0,0,0,0,0,0,0,0,0,0,0,0,0,0,0,0,0,0,0,0,0,0,0,0,0,0,0,0,0,0,0,0,0,0,0,0,0,0,0,0,0,0,0,0,0,0,0,0,0,0,0,0,0,0,0,0,1697,
1697,0,0,0,0,0,0,0,0,0,0,0,0,0,0,0,0,0,0,0,0,0,0,0,0,0,0,0,0,0,0,0,0,0,0,0,0,0,0,0,0,0,0,0,0,0,0,0,0,0,0,0,0,0,0,0,0,0,0,0,0,0,0,0,0,0,0,0,0,0,0,0,0,0,0,0,0,0,0,0,0,0,0,0,0,0,0,0,0,0,0,0,0,0,0,0,0,0,0,0,0,0,0,0,0,0,0,0,0,0,1255,1256,1257,1258,1259,0,0,0,0,0,0,0,0,0,0,0,0,0,0,0,0,0,0,0,0,0,0,0,0,0,0,0,0,0,0,0,0,0,0,0,0,0,0,0,0,0,0,0,0,0,0,0,0,0,0,0,0,0,0,0,0,0,0,0,0,0,0,0,0,0,0,0,0,0,0,0,0,0,0,0,0,0,0,0,0,0,0,0,0,0,0,0,0,0,0,0,0,0,0,0,0,0,0,0,0,0,0,0,0,0,0,0,0,0,0,0,0,0,0,0,0,0,0,0,0,0,0,0,0,1697,
1697,0,0,0,0,0,0,0,0,0,0,0,0,0,0,0,0,0,0,0,0,0,0,0,0,0,0,0,0,0,0,0,0,0,0,0,0,0,0,0,0,0,0,0,0,0,0,0,0,0,0,0,0,0,0,0,0,0,0,0,0,0,0,0,0,0,0,0,0,0,0,0,0,0,0,0,0,0,0,0,0,0,0,0,0,0,0,0,0,0,0,0,0,0,0,0,0,0,0,0,0,0,0,0,0,0,0,0,0,0,0,0,0,0,0,0,0,0,0,0,0,0,0,0,0,0,0,0,0,0,0,0,0,0,0,0,0,1198,1199,1200,1201,1202,0,0,0,0,0,0,0,0,0,0,0,0,0,0,0,0,0,0,0,0,0,0,0,0,0,0,0,0,0,0,0,0,0,0,0,0,0,0,0,0,0,0,0,0,0,0,0,0,0,0,0,0,0,0,0,0,0,0,0,0,0,0,0,0,0,0,0,0,0,0,0,286,287,288,289,287,288,289,287,288,290,0,0,0,0,0,0,0,0,0,0,0,0,0,0,0,0,1697,
1697,0,0,0,0,0,0,0,0,0,0,0,0,0,0,0,0,0,0,0,0,0,0,0,0,0,0,0,0,0,0,0,0,0,0,0,0,0,0,0,0,0,0,0,0,0,0,0,0,0,0,0,0,0,0,0,0,0,0,0,0,0,0,0,0,0,0,0,0,0,0,0,0,0,0,0,0,0,0,0,0,0,0,0,0,0,0,0,0,0,0,0,0,0,0,0,0,0,0,0,0,0,0,0,0,0,0,0,0,0,0,0,0,0,0,0,0,0,0,0,0,0,0,0,0,0,0,0,0,0,0,0,0,0,0,0,0,1255,1256,1257,1258,1259,0,0,0,0,0,0,0,0,0,0,0,0,0,0,0,0,0,0,0,0,0,0,0,0,0,0,0,0,0,0,0,0,0,0,0,0,0,0,0,0,0,0,0,0,0,0,0,0,0,0,0,0,0,0,0,0,0,0,0,0,0,0,0,0,0,0,0,0,0,0,0,514,515,516,517,515,516,517,515,516,518,0,0,0,0,0,0,0,0,0,0,0,0,0,0,0,0,1697,
1697,0,0,0,0,0,0,0,0,0,0,0,0,0,0,0,0,0,0,0,0,0,0,0,0,0,0,0,0,0,0,0,0,0,0,0,0,0,0,0,0,0,0,0,0,0,0,0,0,0,0,0,0,0,0,0,0,0,0,0,0,0,0,0,0,0,0,0,0,0,0,0,0,0,0,0,0,0,0,0,0,0,0,0,0,0,0,0,0,0,0,0,0,0,0,0,0,0,0,0,0,1198,1199,1200,1201,1202,0,0,0,0,0,0,0,0,0,0,0,0,0,1198,1199,1200,1201,1202,0,0,0,0,0,0,0,0,0,0,0,0,0,0,0,0,0,0,0,0,0,0,0,0,0,0,0,0,0,0,0,0,0,0,0,0,0,0,0,0,0,0,0,0,0,0,0,0,0,0,0,0,0,0,0,0,0,0,0,0,0,0,0,0,0,0,0,0,0,0,0,0,0,0,0,0,0,0,0,0,0,0,0,0,0,0,0,0,0,0,0,0,0,0,0,0,0,0,0,0,0,0,0,0,0,0,0,0,0,0,0,0,0,0,0,1697,
1697,0,0,0,0,0,0,0,0,0,0,0,0,0,0,0,0,0,0,0,0,0,0,0,0,0,0,0,0,0,0,0,0,0,0,0,0,0,0,0,0,0,0,0,0,0,0,0,0,0,0,0,0,0,0,0,0,0,0,0,0,0,0,0,0,0,0,0,0,0,0,0,0,0,0,0,0,0,0,0,0,0,0,0,0,0,0,0,0,0,0,0,0,0,0,0,0,0,0,0,0,1255,1256,1257,1258,1259,0,0,0,0,0,0,0,0,0,0,0,0,0,1255,1256,1257,1258,1259,0,0,0,0,0,0,0,0,0,0,0,0,0,0,0,0,0,0,0,0,0,0,0,0,0,0,0,0,0,0,0,0,0,0,0,0,0,0,0,0,0,0,0,0,0,0,0,0,0,0,0,0,0,0,0,0,0,0,0,0,0,0,0,0,0,0,0,0,0,0,0,0,0,0,0,0,0,0,0,0,0,0,0,0,0,0,0,0,0,0,0,0,0,0,0,0,0,0,0,0,0,0,0,0,0,0,0,0,0,0,0,0,0,0,0,1697,
1697,0,0,0,0,0,0,0,0,0,0,0,0,0,0,0,0,0,0,0,0,0,0,0,0,0,0,0,0,0,0,0,0,0,0,0,0,0,0,0,0,0,0,0,0,0,0,0,0,0,0,0,0,0,0,0,0,0,0,0,0,0,0,0,0,0,0,0,0,0,0,0,0,0,0,0,0,0,0,0,0,0,0,0,0,0,0,0,0,0,0,0,0,0,0,0,0,0,0,0,0,0,0,0,0,0,0,0,0,0,0,0,0,0,0,0,0,0,0,0,0,0,0,0,0,0,0,0,0,0,0,0,0,0,0,0,0,0,0,0,0,0,0,0,0,0,0,0,0,0,0,0,0,0,0,0,0,0,0,0,0,0,0,0,0,0,0,0,0,0,0,0,0,0,0,0,0,0,0,0,0,0,0,0,0,0,0,0,0,0,0,0,0,0,0,0,0,0,0,0,0,0,0,0,0,0,0,0,0,0,0,0,0,0,0,0,0,0,0,0,0,0,0,0,0,0,0,0,0,0,0,0,0,0,0,0,0,0,0,1697,
1697,0,0,0,0,0,0,0,0,0,0,0,0,0,0,0,0,0,0,0,0,0,0,0,0,0,0,0,0,0,0,0,0,0,0,0,0,0,0,0,0,0,0,0,0,0,0,0,0,0,0,0,0,0,0,0,0,0,0,0,0,0,0,0,0,0,0,0,0,0,0,0,0,0,0,0,0,0,0,0,0,0,0,0,0,0,0,0,0,0,0,0,0,0,0,0,0,0,0,0,0,0,0,0,0,0,0,0,0,0,0,0,0,0,0,0,0,0,0,0,0,0,0,0,0,0,0,0,0,0,0,0,0,0,0,0,0,0,0,0,0,0,0,0,0,0,0,0,0,0,0,0,0,0,0,0,0,0,0,0,0,0,0,0,0,0,0,0,0,0,0,0,0,0,0,0,0,0,0,0,0,0,0,0,0,0,0,0,0,0,0,0,0,0,0,0,0,0,0,0,0,0,0,0,0,0,0,0,0,0,0,0,0,0,0,0,0,0,0,0,0,0,0,0,0,0,0,0,0,0,0,0,0,0,0,0,0,0,0,1697,
1697,0,0,0,0,0,0,0,0,0,0,0,0,0,0,0,0,0,0,0,0,0,0,0,0,0,0,0,0,0,0,0,0,0,0,0,0,0,0,0,0,0,0,0,0,0,0,0,0,0,0,0,0,0,0,0,0,0,0,0,0,0,0,0,0,0,0,0,0,0,0,0,0,0,0,0,0,0,0,0,0,0,0,0,0,0,0,0,0,0,0,0,0,0,0,0,0,0,0,0,0,0,0,0,0,0,0,0,0,0,0,0,0,0,0,0,0,0,0,0,0,0,0,0,0,0,0,0,0,0,0,0,0,0,0,0,0,0,0,0,0,0,0,0,0,0,0,0,0,0,0,0,0,0,0,0,0,0,0,0,0,0,0,0,0,0,0,0,0,0,0,0,0,0,0,0,0,0,0,0,0,0,0,0,0,0,0,0,0,0,0,0,0,0,0,0,0,0,0,0,0,0,0,0,0,0,0,0,0,0,0,0,0,0,0,0,0,0,0,0,0,0,0,0,0,0,0,0,0,0,0,0,0,0,0,0,0,0,0,1697,
1697,0,0,0,0,0,0,0,0,0,0,0,0,0,0,0,0,0,0,0,0,0,0,0,0,0,0,0,0,0,0,0,0,0,0,0,0,0,0,0,0,0,0,0,0,0,0,0,0,0,0,0,0,0,0,0,286,287,288,289,287,288,290,0,0,0,0,0,0,0,0,0,0,0,0,0,0,0,0,0,0,0,0,0,0,0,0,0,0,0,0,0,0,0,0,0,0,0,0,0,0,0,0,0,0,0,0,0,0,0,0,0,0,0,0,0,0,0,0,0,0,0,0,0,0,0,0,0,0,0,0,0,0,0,0,0,0,0,0,0,0,0,0,0,0,0,0,0,0,0,0,0,0,0,0,0,0,0,0,0,0,0,0,0,0,0,0,0,0,0,0,0,0,0,0,0,0,0,0,0,0,0,0,0,0,0,0,0,0,0,0,0,0,0,0,0,0,0,0,0,0,0,0,0,0,0,0,0,0,0,0,0,0,0,0,0,0,0,0,0,0,0,0,0,0,0,0,0,0,0,0,0,0,0,0,0,0,0,0,1697,
1697,0,0,0,0,0,0,0,0,0,0,0,0,0,0,0,0,0,0,0,0,0,0,0,0,0,0,0,0,0,0,0,0,0,0,0,0,0,0,0,0,0,0,0,0,0,0,0,0,0,0,0,0,0,0,0,514,515,516,517,515,516,518,0,0,0,0,0,0,0,0,0,0,0,0,0,0,0,0,0,0,0,0,0,0,0,0,0,0,0,0,0,0,0,0,0,0,0,0,0,0,0,0,0,0,0,0,0,0,0,0,0,0,0,0,0,0,0,0,0,0,0,0,0,0,0,0,0,0,0,0,0,0,0,0,0,0,0,0,0,0,0,0,0,0,0,0,0,0,0,0,0,0,0,0,0,0,0,0,0,0,0,0,0,0,0,0,0,0,0,0,0,0,0,0,0,0,0,0,0,0,0,0,0,0,0,0,0,0,0,0,0,0,0,0,0,0,0,0,0,0,0,0,0,0,0,0,0,0,0,0,0,0,0,0,0,0,0,0,0,0,0,0,0,0,0,0,0,0,0,0,0,0,0,0,0,0,0,0,1697,
1697,0,0,0,0,0,0,0,0,0,0,0,0,0,0,0,0,0,0,0,0,0,0,0,0,0,0,0,0,0,0,0,0,0,0,0,0,0,0,0,0,0,0,0,0,0,0,0,0,0,0,0,0,0,0,0,0,0,0,0,0,0,0,0,0,0,0,0,0,0,0,0,0,0,0,0,0,0,0,0,0,0,0,0,0,0,0,0,0,0,0,0,0,0,0,0,0,0,0,0,0,0,0,0,0,0,0,0,0,0,0,0,0,0,0,0,0,0,0,0,0,0,0,0,0,0,0,0,0,0,0,0,0,0,0,0,0,0,0,0,0,0,0,0,0,0,0,0,0,0,0,0,0,0,0,0,0,0,0,0,0,0,0,0,0,0,0,0,0,0,0,0,0,0,0,0,0,0,0,0,0,0,0,0,0,0,0,0,0,0,0,0,0,0,0,0,0,0,0,0,0,0,0,0,0,0,0,0,0,0,0,0,0,0,0,0,0,0,0,0,0,0,0,0,0,0,0,0,0,0,0,0,0,0,0,0,0,0,0,1697,
1697,0,0,0,0,0,0,0,0,0,0,0,0,0,0,0,0,0,0,0,0,0,0,0,0,0,0,0,0,0,0,0,0,0,0,0,0,0,0,0,0,0,0,0,0,0,0,0,0,0,0,0,0,0,0,0,0,0,0,0,0,0,0,0,0,0,0,0,0,0,0,0,0,0,0,0,0,0,0,0,0,0,0,0,0,0,0,0,0,0,0,0,0,0,0,0,0,0,0,0,0,0,0,0,0,0,0,0,0,0,0,0,0,0,0,0,0,0,0,0,0,0,0,0,0,0,0,0,0,0,0,0,0,0,0,0,0,0,0,0,0,0,0,0,0,0,0,0,0,0,0,0,0,0,0,0,0,0,0,0,0,0,0,0,0,0,0,0,0,0,0,0,0,0,0,0,0,0,0,0,0,0,0,0,0,0,0,0,0,0,0,0,0,0,0,0,0,0,0,0,0,0,0,0,0,0,0,0,0,0,0,0,0,0,0,0,0,0,0,0,0,0,0,0,0,0,0,0,0,0,0,0,0,0,0,0,0,0,0,1697,
1697,0,0,0,0,0,0,0,0,0,0,0,0,0,0,0,0,0,0,0,0,0,0,0,0,0,0,0,0,0,0,0,0,0,0,0,0,0,0,0,0,0,0,0,0,0,0,0,0,0,0,0,0,0,0,0,0,0,0,0,0,0,0,0,0,0,0,0,0,0,0,0,0,0,0,0,0,0,0,0,0,0,0,0,0,0,0,0,0,0,0,0,0,0,0,0,0,0,0,0,0,0,0,0,0,0,0,0,0,0,0,0,0,0,0,0,0,0,0,0,0,0,0,0,0,0,0,0,0,0,0,0,0,0,0,0,0,0,0,0,0,0,0,0,0,0,0,0,0,0,0,0,0,0,0,0,0,0,0,0,0,0,0,0,0,0,0,0,0,0,0,0,0,0,0,0,0,0,0,0,0,0,0,0,0,0,0,0,0,0,0,0,0,0,0,0,0,0,0,0,0,0,0,0,0,0,0,0,0,0,0,0,0,0,0,0,0,0,0,0,0,0,0,0,0,0,0,0,0,0,0,0,0,0,0,0,0,0,0,1697,
1697,0,0,0,0,0,0,0,0,0,0,0,0,0,0,0,0,0,0,0,0,0,0,0,0,0,0,0,0,0,0,0,0,0,0,0,0,0,0,0,0,0,0,0,0,0,0,0,0,0,0,0,0,0,0,0,0,0,0,0,0,0,0,0,0,0,0,0,0,0,0,0,0,0,0,0,0,0,0,0,0,0,0,0,0,0,0,0,0,0,0,0,0,0,0,0,0,0,0,0,0,0,0,0,0,0,0,0,0,0,0,0,0,0,0,0,0,0,0,0,0,0,0,0,0,0,0,0,0,0,0,0,0,0,0,0,0,0,0,0,0,0,0,0,0,0,0,0,0,0,0,0,0,0,0,0,0,0,0,0,0,0,0,0,0,0,0,0,0,0,0,0,0,0,0,0,0,0,0,0,0,0,0,0,0,0,0,0,0,0,0,0,0,0,0,0,0,0,0,0,0,0,0,0,0,0,0,0,0,0,0,0,0,0,0,0,0,0,0,0,0,0,0,0,0,0,0,0,0,0,0,0,0,0,0,0,0,0,0,1697,
1697,0,0,0,0,0,0,0,0,0,0,0,0,0,0,0,0,0,0,0,0,0,0,0,0,0,0,0,0,0,0,0,0,0,0,0,0,0,0,0,0,0,0,0,1909,1910,1911,1912,0,0,0,0,0,0,0,0,0,0,0,0,0,0,0,0,0,0,0,0,0,0,0,0,0,0,0,0,0,0,0,0,0,0,0,0,0,0,0,0,0,0,0,0,0,0,0,0,0,0,0,0,0,0,0,0,0,0,0,0,0,0,0,0,0,0,0,0,0,0,0,0,0,0,0,0,0,0,0,0,0,0,0,0,0,0,0,0,0,0,0,0,0,0,0,0,0,0,0,0,0,0,0,0,0,0,0,0,0,0,0,0,0,0,0,0,0,0,0,0,0,0,0,0,0,0,0,0,0,0,0,0,0,0,0,0,0,0,0,0,0,0,0,0,0,0,0,0,0,0,0,0,0,0,0,0,0,0,0,0,0,0,0,0,0,0,0,0,0,0,0,0,0,0,0,0,0,0,0,0,0,0,0,0,0,0,0,0,0,0,0,1697,
1697,0,0,0,0,0,0,286,287,288,289,287,288,289,287,287,287,287,287,287,287,287,287,287,287,288,289,290,0,0,0,0,0,0,0,0,0,0,0,0,0,0,0,0,0,0,0,0,1909,1910,1911,1912,0,0,0,0,0,0,0,0,0,0,0,0,0,0,0,0,0,0,0,0,0,0,0,0,0,0,0,0,0,0,0,0,0,0,0,0,0,0,0,0,0,0,0,0,0,0,0,0,0,0,0,0,0,0,0,0,0,0,0,0,0,0,0,0,0,0,0,0,0,0,0,0,0,0,0,0,0,0,0,0,0,0,0,0,0,0,0,0,0,0,0,0,0,0,0,0,0,0,0,0,0,0,0,0,0,0,0,0,0,0,0,0,0,0,0,0,0,0,0,0,0,0,0,0,0,0,0,0,0,0,0,0,0,0,0,0,0,0,0,0,0,0,0,0,0,0,0,0,0,0,0,0,0,0,0,0,0,0,0,0,0,0,0,0,0,0,0,0,0,0,0,0,0,0,0,0,0,0,0,0,0,0,0,0,0,0,0,1697,
1697,0,0,0,0,0,0,343,344,345,346,344,345,346,344,344,344,344,344,344,344,344,344,344,344,345,346,347,0,0,0,0,0,0,0,0,0,0,0,0,0,0,0,0,0,0,0,0,0,0,0,0,1909,1910,1911,1912,0,0,0,0,0,0,0,0,0,0,0,0,0,0,0,0,0,0,0,0,0,0,0,0,0,0,0,0,0,0,0,0,0,0,0,0,0,0,0,0,0,0,0,0,0,0,0,0,0,0,0,0,0,0,0,0,0,0,0,0,0,0,0,0,0,0,0,0,0,0,0,0,0,0,0,0,0,0,0,0,0,0,0,0,0,0,0,0,0,0,0,0,0,0,0,0,0,0,0,0,0,0,0,0,0,0,0,0,0,0,0,0,0,0,0,0,0,0,0,0,0,0,0,0,0,0,0,0,0,0,0,0,0,0,0,0,0,0,0,0,0,0,0,0,0,0,0,0,0,0,0,0,0,0,0,0,0,0,0,0,0,0,0,0,0,0,0,0,0,0,0,0,0,0,0,0,0,0,0,0,0,0,0,1697,
1697,0,0,0,0,0,0,400,401,402,403,401,402,403,401,401,401,401,401,401,401,401,401,401,401,402,403,404,0,0,0,0,0,0,0,0,0,0,0,0,0,0,0,0,0,0,0,0,0,0,0,0,0,0,0,0,0,0,0,0,0,0,0,0,0,0,0,0,0,0,0,0,0,0,0,0,0,0,0,0,0,0,0,0,0,0,0,0,0,0,0,0,0,0,0,0,0,0,0,0,0,0,0,0,0,0,0,0,0,0,0,0,0,0,0,0,0,0,0,0,0,0,0,0,0,0,0,0,0,0,0,0,0,0,0,0,0,0,0,0,0,0,0,0,0,0,0,0,0,0,0,0,746,747,748,749,748,749,748,749,748,749,748,749,748,749,748,749,748,749,748,749,748,749,748,749,748,749,748,749,748,749,748,749,748,749,748,749,748,749,748,749,748,749,748,749,748,749,748,749,748,749,748,749,748,749,748,749,748,750,751,0,0,0,0,0,0,0,0,0,0,0,0,0,0,0,0,0,0,0,0,0,0,0,0,0,0,0,0,1697,
1697,0,0,0,0,0,0,0,0,0,0,0,0,0,0,0,0,0,0,0,0,0,0,0,0,0,0,0,0,0,0,0,0,0,0,0,0,0,0,0,0,0,0,0,0,0,0,0,0,0,0,0,0,0,0,0,0,0,0,0,0,0,0,0,0,0,0,0,0,0,0,0,0,0,0,0,0,0,0,0,0,0,0,0,0,0,0,0,0,0,0,0,0,0,0,0,0,0,0,0,0,0,0,0,0,0,0,0,0,0,0,0,0,0,0,0,0,0,0,0,0,0,0,0,0,0,0,0,0,0,0,0,0,0,0,0,0,0,0,0,0,0,0,0,0,0,0,0,0,0,0,0,803,804,805,806,805,806,805,806,805,806,805,806,805,806,805,806,805,806,805,806,805,806,805,806,805,806,866,866,805,806,805,806,805,806,805,806,805,806,805,806,805,806,805,806,805,806,805,806,805,806,805,806,805,806,805,806,805,807,808,0,0,0,0,0,0,0,0,0,0,0,0,0,0,0,0,0,0,0,0,0,0,0,0,0,0,0,0,1697,
1697,0,0,0,0,0,0,0,0,0,0,0,0,0,0,0,0,0,0,0,0,0,0,0,0,0,0,0,0,0,0,0,0,0,0,0,0,0,0,0,0,0,0,0,0,0,0,0,0,0,0,0,0,0,0,0,0,0,0,0,0,0,0,0,0,0,0,0,0,0,0,0,0,0,0,0,0,0,0,0,0,0,0,0,0,0,0,0,0,0,0,0,0,0,0,0,0,0,0,0,0,0,0,0,0,0,0,0,0,0,0,0,0,0,0,0,0,0,0,0,0,0,0,0,0,0,0,0,0,0,0,0,0,0,0,0,0,0,0,0,0,0,0,0,0,0,0,0,0,0,0,0,803,804,805,806,805,806,805,806,805,806,805,806,805,806,805,806,805,806,805,806,805,806,805,806,805,806,866,866,805,806,805,806,805,806,805,806,805,806,805,806,805,806,805,806,805,806,805,806,805,806,805,806,805,806,805,806,805,807,808,0,0,0,0,0,0,0,0,0,0,0,0,0,0,0,0,0,0,0,0,0,0,0,0,0,0,0,0,1697,
1697,0,0,0,0,0,0,0,0,0,0,0,0,0,0,0,0,0,0,0,0,0,0,0,0,0,0,0,0,0,0,0,0,0,0,0,0,0,0,0,0,0,0,0,0,0,0,0,0,0,0,0,0,0,0,0,0,0,0,0,0,0,0,0,0,0,0,0,0,0,0,0,0,0,0,0,0,0,0,0,0,0,0,0,0,0,0,0,0,0,0,0,0,0,0,0,0,0,0,0,0,0,0,0,0,0,0,0,0,0,0,0,0,0,0,0,0,0,0,0,0,0,0,0,0,0,0,0,0,0,0,0,0,0,0,0,0,0,0,0,0,0,0,0,0,0,0,0,0,0,0,0,803,804,805,806,805,806,805,806,805,806,805,806,805,806,805,806,805,806,805,806,805,806,805,806,805,806,923,923,805,806,805,806,805,806,805,806,805,806,805,806,805,806,805,806,805,806,805,806,805,806,805,806,805,806,805,806,805,807,808,0,0,0,0,0,0,0,0,0,0,0,0,0,0,0,0,0,0,0,0,0,0,0,0,0,0,0,0,1697,
1697,0,0,0,0,0,0,1,2,2,2,2,2,2,2,2,2,2,2,2,2,2,2,2,2,2,3,5,0,0,0,0,0,0,0,0,0,0,0,0,0,0,0,0,0,0,0,0,0,0,0,0,0,0,0,0,0,0,0,0,0,0,0,0,0,0,0,0,0,0,0,0,0,0,0,0,0,0,0,0,0,0,0,0,0,0,0,0,0,0,0,0,0,0,0,0,0,0,0,0,0,0,0,0,0,0,0,0,0,0,0,0,0,0,0,0,0,0,0,0,0,0,0,0,0,0,0,0,0,0,0,0,0,0,0,0,0,0,0,0,0,0,0,0,0,0,0,0,0,0,0,0,803,804,805,806,805,806,805,806,805,806,805,806,805,806,805,806,805,806,805,806,805,806,805,806,805,806,923,923,805,806,805,806,805,806,805,806,805,806,805,806,805,806,805,806,805,806,805,806,805,806,805,806,805,806,805,806,805,807,808,0,0,0,0,0,0,0,0,0,0,0,0,0,0,0,0,0,0,0,0,0,0,0,0,0,0,0,0,1697,
1697,0,0,0,0,0,0,58,59,59,59,59,59,59,59,59,59,59,59,59,59,59,59,59,59,59,60,62,0,0,0,0,0,0,0,0,0,0,0,0,0,0,0,0,0,0,0,0,0,0,0,0,0,0,0,0,0,0,0,0,0,0,0,0,0,0,0,0,0,0,0,0,0,0,0,0,0,0,0,0,0,0,0,0,0,0,0,0,0,0,0,0,0,0,0,0,0,0,0,0,0,0,0,0,0,0,0,0,0,0,0,0,0,0,0,0,0,0,0,0,0,0,0,0,0,0,0,0,0,0,0,0,0,0,0,0,0,0,0,0,0,0,0,0,0,0,0,0,0,0,0,0,803,804,805,806,805,806,805,806,805,806,805,806,805,806,805,806,805,806,805,806,805,806,805,806,805,806,866,866,805,806,805,806,805,806,805,806,805,806,805,806,805,806,805,806,805,806,805,806,805,806,805,806,805,806,805,806,805,807,808,0,0,0,0,0,0,0,0,0,0,0,0,0,0,0,0,0,0,0,0,0,0,0,0,0,0,0,0,1697,
1697,0,0,0,0,0,0,115,116,116,116,116,116,116,116,116,116,116,116,116,116,116,116,116,116,116,117,119,0,0,0,0,0,0,0,0,0,0,0,0,0,0,0,0,0,0,0,0,0,0,0,0,0,0,0,0,286,287,288,289,287,288,290,0,0,0,0,0,0,0,0,0,0,0,0,0,0,0,0,0,0,0,0,0,0,0,0,0,0,0,0,0,0,0,0,0,0,0,0,0,0,0,0,0,0,0,0,0,0,0,0,0,0,0,0,0,0,0,0,0,0,0,0,0,0,0,0,0,0,0,0,0,0,0,0,0,0,0,0,0,0,0,0,0,0,0,0,0,0,0,0,0,803,804,805,806,805,806,805,806,805,806,805,806,805,806,805,806,805,806,805,806,805,806,805,806,805,806,866,866,805,806,805,806,805,806,805,806,805,806,805,806,805,806,805,806,805,806,805,806,805,806,805,806,805,806,805,806,805,807,808,0,0,0,0,0,0,0,0,0,0,0,0,0,0,0,0,0,0,0,0,0,0,0,0,0,0,0,0,1697,
1697,0,0,0,0,0,0,172,173,173,173,173,173,173,173,173,173,173,173,173,173,173,173,173,173,173,174,176,0,0,0,0,0,0,0,0,0,0,0,0,0,0,0,0,0,0,0,0,0,0,0,0,0,0,0,0,514,515,516,517,515,516,518,0,0,0,0,0,0,0,0,0,0,0,0,0,0,0,0,0,0,0,0,0,0,0,0,0,0,0,0,0,0,0,0,0,0,0,0,0,0,0,0,0,0,0,0,0,0,0,0,0,0,0,0,0,0,0,0,0,0,0,0,0,0,0,0,0,0,0,0,0,0,0,0,0,0,0,0,0,0,0,0,0,0,0,0,0,0,0,0,0,803,804,805,806,805,806,805,806,805,806,805,806,805,806,805,806,805,806,805,806,805,806,805,806,805,806,923,923,805,806,805,806,805,806,805,806,805,806,805,806,805,806,805,806,805,806,805,806,805,806,805,806,805,806,805,806,805,807,808,0,0,0,0,0,0,0,0,0,0,0,0,0,0,0,0,0,0,0,0,0,0,0,0,0,0,0,0,1697,
1697,0,0,0,0,0,0,229,230,230,230,230,230,230,230,230,230,230,230,230,230,230,230,230,230,230,231,233,0,0,0,0,0,0,0,0,0,0,0,0,0,0,0,0,0,0,0,0,0,0,0,0,0,0,0,0,0,0,0,0,0,0,0,0,0,0,0,0,0,0,0,0,0,0,0,0,0,0,0,0,0,0,0,0,0,0,0,0,0,0,0,0,0,0,0,0,0,0,0,0,0,0,0,0,0,0,0,0,0,0,0,0,0,0,0,0,0,0,0,0,0,0,0,0,0,0,0,0,0,0,0,0,0,0,0,0,0,0,0,0,0,0,0,0,0,0,0,0,0,0,0,0,803,804,805,806,805,806,805,806,805,806,805,806,805,806,805,806,805,806,805,806,805,806,805,806,805,806,923,923,805,806,805,806,805,806,805,806,805,806,805,806,805,806,805,806,805,806,805,806,805,806,805,806,805,806,805,806,805,807,808,0,0,0,0,0,0,0,0,0,0,0,0,0,0,0,0,0,0,0,0,0,0,0,0,0,0,0,0,1697,
1697,0,0,0,0,0,0,0,0,0,0,0,0,0,0,0,0,0,0,0,0,0,0,0,0,0,0,0,0,0,0,0,0,0,0,0,0,0,0,0,0,0,0,0,0,0,0,0,0,0,0,0,0,0,0,0,0,0,0,0,0,0,0,0,0,0,0,0,0,0,0,0,0,0,0,0,0,0,0,0,0,0,0,0,0,0,0,0,0,0,0,0,0,0,0,0,0,0,0,0,0,0,0,0,0,0,0,0,0,0,0,0,0,0,0,0,0,0,0,0,0,0,0,0,0,0,0,0,0,0,0,0,0,0,0,0,0,0,0,0,0,0,0,0,0,0,0,0,0,0,0,0,803,804,805,806,805,806,805,806,805,806,805,806,805,806,805,806,805,806,805,806,805,806,805,806,805,806,866,866,805,806,805,806,805,806,805,806,805,806,805,806,805,806,805,806,805,806,805,806,805,806,805,806,805,806,805,806,805,807,808,0,0,0,0,0,0,0,0,0,0,0,0,0,0,0,0,0,0,0,0,0,0,0,0,0,0,0,0,1697,
1697,0,0,0,0,0,0,0,0,0,0,0,0,0,0,0,0,0,0,0,0,0,0,0,0,0,0,0,0,0,0,0,0,0,0,0,0,0,0,0,0,0,0,0,0,0,0,0,0,0,0,0,0,0,0,0,0,0,0,0,0,0,0,0,0,0,0,0,0,0,0,0,0,0,0,0,0,0,0,0,0,0,0,0,0,0,0,0,0,0,0,0,0,0,0,0,0,0,0,0,0,0,0,0,0,0,0,0,0,0,0,0,0,0,0,0,0,0,0,0,0,0,0,0,0,0,0,0,0,0,0,0,0,0,0,0,0,0,0,0,0,0,0,0,0,0,0,0,0,0,0,0,803,804,805,806,805,806,805,806,805,806,805,806,805,806,805,806,805,806,805,806,805,806,805,806,805,806,866,866,805,806,805,806,805,806,805,806,805,806,805,806,805,806,805,806,805,806,805,806,805,806,805,806,805,806,805,806,805,807,808,0,0,0,0,0,0,0,0,0,0,0,0,0,0,0,0,0,0,0,0,0,0,0,0,0,0,0,0,1697,
1697,0,0,0,0,0,0,0,0,0,0,0,0,0,0,0,0,0,0,0,0,0,0,0,0,0,0,0,0,0,0,0,0,0,0,0,0,0,0,0,0,0,0,0,0,0,0,0,0,0,0,0,0,0,0,0,0,0,0,0,0,0,0,0,0,0,0,0,0,0,0,0,0,0,0,0,0,0,0,0,0,0,0,0,0,0,0,0,0,0,0,0,0,0,0,0,0,0,0,0,0,0,0,0,0,0,0,0,0,0,0,0,0,0,0,0,0,0,0,0,0,0,0,0,0,0,0,0,0,0,0,0,0,0,0,0,0,0,0,0,0,0,0,0,0,0,0,0,0,0,0,0,803,804,805,806,805,806,805,806,805,806,805,806,805,806,805,806,805,806,805,806,805,806,805,806,805,806,923,923,805,806,805,806,805,806,805,806,805,806,805,806,805,806,805,806,805,806,805,806,805,806,805,806,805,806,805,806,805,807,808,0,0,0,0,0,0,0,0,0,0,0,0,0,0,0,0,0,0,0,0,0,0,0,0,0,0,0,0,1697,
1697,0,0,0,0,0,0,0,0,0,0,0,0,0,0,0,0,0,0,0,0,0,0,0,0,0,0,0,0,0,0,0,0,0,0,0,0,0,0,0,0,0,0,0,0,0,0,0,0,0,0,0,0,0,0,0,0,0,0,0,0,0,0,0,0,0,0,0,0,0,0,0,0,0,0,0,0,0,0,1103,1104,0,0,0,0,0,0,0,0,0,0,0,0,0,0,0,0,0,0,0,1103,1104,0,0,0,0,0,0,0,0,0,0,0,0,0,0,0,0,0,0,0,0,0,1103,1104,0,0,0,0,0,0,0,0,0,0,0,0,0,0,0,0,0,0,0,0,0,0,1103,1104,0,0,0,803,804,805,806,805,806,805,806,805,806,805,806,805,806,805,806,805,806,805,806,805,806,805,806,805,806,923,923,805,806,805,806,805,806,805,806,805,806,805,806,805,806,805,806,805,806,805,806,805,806,805,806,805,806,805,806,805,807,808,0,0,0,0,0,0,0,0,0,0,0,0,0,0,0,0,0,0,0,0,0,0,0,0,0,0,0,0,1697,
1697,0,0,0,0,0,0,0,0,0,0,0,0,0,0,0,0,0,0,0,0,0,0,0,0,0,0,0,0,0,0,0,0,0,0,0,0,0,0,0,0,0,0,0,0,0,0,0,0,0,0,0,0,0,0,0,0,0,0,0,0,0,0,0,0,0,0,0,0,0,0,0,0,0,0,0,0,0,0,1160,1161,0,0,0,0,0,0,0,0,0,0,0,0,0,0,0,0,0,0,0,1160,1161,0,0,0,0,0,0,0,0,0,0,0,0,0,0,0,0,0,0,0,0,0,1160,1161,0,0,0,0,0,0,0,0,0,0,0,0,0,0,0,0,0,0,0,0,0,0,1160,1161,0,0,0,803,804,805,806,805,806,805,806,805,806,805,806,805,806,805,806,805,806,805,806,805,806,805,806,805,806,866,866,805,806,805,806,805,806,805,806,805,806,805,806,805,806,805,806,805,806,805,806,805,806,805,806,805,806,805,806,805,807,808,0,0,0,0,0,0,0,0,0,0,0,0,0,0,0,0,0,0,0,0,0,0,0,0,0,0,0,0,1697,
1697,0,0,0,0,0,0,0,0,0,0,0,0,0,0,0,0,0,0,0,0,0,0,0,0,0,0,0,0,0,0,0,0,0,0,0,0,0,0,0,0,0,0,0,286,287,288,289,290,0,0,0,0,0,0,0,1033,1034,1035,1036,1033,1034,1035,1036,1033,1034,1035,1036,1033,1034,1035,1036,1033,1034,1035,1036,1033,1034,1035,1217,1218,1034,1035,1036,1033,1034,1035,1036,1033,1034,1035,1036,1033,1034,1035,1036,1033,1034,1035,1036,1217,1218,1035,1036,1033,1034,1035,1036,1033,1034,1035,1036,1033,1034,1035,1036,1033,1034,1035,1036,1033,1034,1035,1217,1218,1034,1035,1036,1033,1034,1035,1036,1033,1034,1035,1036,1033,1034,1035,1036,1033,1034,1035,1036,1033,1034,1035,1217,1218,1034,1035,1036,803,804,805,806,805,806,805,806,805,806,805,806,805,806,805,806,805,806,805,806,805,806,805,806,805,806,866,866,805,806,805,806,805,806,805,806,805,806,805,806,805,806,805,806,805,806,805,806,805,806,805,806,805,806,805,806,805,807,808,0,0,0,0,0,0,0,0,0,0,0,0,0,0,0,0,0,0,0,0,0,0,0,0,0,0,0,0,1697,
1697,0,0,0,0,0,0,0,0,0,0,0,0,0,0,0,0,0,0,0,0,0,0,0,0,0,0,0,0,0,0,0,0,0,0,0,0,0,0,0,0,0,0,0,343,344,345,346,347,0,0,0,0,0,0,0,1090,1091,1092,1093,1090,1091,1092,1093,1090,1091,1092,1093,1090,1091,1092,1093,1090,1091,1092,1093,1090,1091,1092,1093,1090,1091,1092,1093,1090,1091,1092,1093,1090,1091,1092,1093,1090,1091,1092,1093,1090,1091,1092,1093,1090,1091,1092,1093,1090,1091,1092,1093,1090,1091,1092,1093,1090,1091,1092,1093,1090,1091,1092,1093,1090,1091,1092,1093,1090,1091,1092,1093,1090,1091,1092,1093,1090,1091,1092,1093,1090,1091,1092,1093,1090,1091,1092,1093,1090,1091,1092,1093,1090,1091,1092,1093,803,804,805,806,805,806,805,806,805,806,805,806,805,806,805,806,805,806,805,806,805,806,805,806,805,806,923,923,805,806,805,806,805,806,805,806,805,806,805,806,805,806,805,806,805,806,805,806,805,806,805,806,805,806,805,806,805,807,808,0,0,0,0,0,0,0,0,0,0,0,0,0,0,0,0,0,0,0,0,0,0,0,0,0,0,0,0,1697,
1697,0,0,0,0,0,0,0,0,0,0,0,0,0,0,0,0,0,0,0,0,0,0,0,0,0,0,0,0,0,0,0,0,0,0,0,0,0,0,0,0,0,0,0,400,401,402,403,404,0,0,0,0,0,0,0,1030,1031,1032,1030,1031,1032,1030,1031,1032,1030,1031,1032,1030,1031,1032,1031,1032,1030,1031,1032,1030,1031,1032,1030,1031,1032,1030,1031,1032,1030,1031,1032,1030,1031,1032,1030,1031,1032,1030,1031,1032,1030,1031,1032,1030,1031,1032,1030,1031,1032,1030,1031,1032,1030,1031,1032,1030,1031,1032,1030,1031,1032,1030,1031,1032,1030,1031,1032,1030,1031,1032,1030,1031,1032,1030,1031,1032,1030,1031,1032,1030,1031,1032,1030,1031,1032,1030,1031,1032,1030,1031,1032,1030,1031,1032,1030,803,804,805,806,805,806,805,806,805,806,805,806,805,806,805,806,805,806,805,806,805,806,805,806,805,806,923,923,805,806,805,806,805,806,805,806,805,806,805,806,805,806,805,806,805,806,805,806,805,806,805,806,805,806,805,806,805,807,808,0,0,0,0,0,0,0,0,0,0,0,0,0,0,0,0,0,0,0,0,0,0,0,0,0,0,0,0,1697,
1697,0,0,0,0,0,0,0,0,0,0,0,0,0,0,0,0,0,0,0,0,0,0,0,0,0,0,0,0,0,0,0,0,0,0,0,0,0,0,0,0,0,0,0,400,401,402,403,404,0,0,0,0,0,0,0,1030,1031,1032,1030,1031,1032,1030,1031,1032,1030,1031,1032,1030,1031,1032,1088,1089,1087,1088,1089,1087,1088,1089,1087,1088,1089,1087,1088,1089,1087,1088,1089,1087,1088,1089,1087,1088,1089,1087,1088,1089,1087,1088,1089,1087,1088,1089,1087,1088,1089,1087,1088,1089,1087,1088,1089,1087,1088,1089,1087,1088,1089,1087,1088,1089,1087,1088,1089,1087,1088,1089,1087,1088,1089,1087,1088,1089,1087,1088,1089,1087,1088,1089,1087,1088,1089,1087,1088,1089,1087,1088,1089,1087,1088,1089,1087,803,804,805,806,805,806,805,806,805,806,805,806,805,806,805,806,805,806,805,806,805,806,805,806,805,806,866,866,805,806,805,806,805,806,805,806,805,806,805,806,805,806,805,806,805,806,805,806,805,806,805,806,805,806,805,806,805,807,808,0,0,0,0,0,0,0,0,0,0,0,0,0,0,0,0,0,0,0,0,0,0,0,0,0,0,0,0,1697,
1697,0,0,0,0,0,0,0,0,0,0,0,0,0,0,0,0,0,0,0,0,0,0,0,0,0,0,0,0,0,0,0,0,0,0,0,0,0,0,0,0,0,0,0,400,401,402,403,404,0,0,0,0,0,0,0,1087,1088,1089,1087,1088,1089,1087,1088,1089,1087,1088,1089,1087,1088,1089,1145,1146,1144,1145,1146,1144,1145,1146,1144,1145,1146,1144,1145,1146,1144,1145,1146,1144,1145,1146,1144,1145,1146,1144,1145,1146,1144,1145,1146,1144,1145,1146,1144,1145,1146,1144,1145,1146,1144,1145,1146,1144,1145,1146,1144,1145,1146,1144,1145,1146,1144,1145,1146,1144,1145,1146,1144,1145,1146,1144,1145,1146,1144,1145,1146,1144,1145,1146,1144,1145,1146,1144,1145,1146,1144,1145,1146,1144,1145,1146,1144,803,804,805,806,805,806,805,806,805,806,805,806,805,806,805,806,805,806,805,806,805,806,805,806,805,806,866,866,805,806,805,806,805,806,805,806,805,806,805,806,805,806,805,806,805,806,805,806,805,806,805,806,805,806,805,806,805,807,808,0,0,0,0,0,0,0,0,0,0,0,0,0,0,0,0,0,0,0,0,0,0,0,0,0,0,0,0,1697,
1697,0,0,0,0,0,0,0,0,0,0,0,0,0,0,0,0,0,0,0,0,0,0,0,0,0,0,0,0,0,286,287,288,289,290,0,0,0,0,0,0,0,0,0,400,401,402,403,404,0,0,0,0,0,0,0,1144,1145,1146,1144,1145,1146,1144,1145,1146,1144,1145,1146,1144,1145,1146,974,975,973,974,975,973,974,975,973,974,975,973,974,975,973,974,975,973,974,975,973,974,975,973,974,975,973,974,975,973,974,975,973,974,975,973,974,975,973,974,975,973,974,975,973,974,975,973,974,975,973,974,975,973,974,975,973,974,975,973,974,975,973,974,975,973,974,975,973,974,975,973,974,975,973,974,975,973,974,975,973,803,804,805,806,805,806,805,806,805,806,805,806,805,806,805,806,805,806,805,806,805,806,805,806,805,806,923,923,805,806,805,806,805,806,805,806,805,806,805,806,805,806,805,806,805,806,805,806,805,806,805,806,805,806,805,806,805,807,808,0,0,0,0,0,0,0,0,0,0,0,0,0,0,0,0,0,0,0,0,0,0,0,0,0,0,0,0,1697,
1697,0,0,0,0,0,0,0,0,0,0,0,0,0,0,0,0,0,0,0,0,0,0,0,0,0,0,0,0,0,343,344,345,346,347,0,0,0,0,0,0,0,0,0,400,401,402,403,404,0,0,0,0,0,0,0,973,974,975,973,974,975,973,974,975,973,974,975,973,974,975,1031,1032,1030,1031,1032,1030,1031,1032,1030,1031,1032,1030,1031,1032,1030,1031,1032,1030,1031,1032,1030,1031,1032,1030,1031,1032,1030,1031,1032,1030,1031,1032,1030,1031,1032,1030,1031,1032,1030,1031,1032,1030,1031,1032,1030,1031,1032,1030,1031,1032,1030,1031,1032,1030,1031,1032,1030,1031,1032,1030,1031,1032,1030,1031,1032,1030,1031,1032,1030,1031,1032,1030,1031,1032,1030,1031,1032,1030,1031,1032,1030,803,804,805,806,805,806,805,806,805,806,805,806,805,806,805,806,805,806,805,806,805,806,805,806,805,806,923,923,805,806,805,806,805,806,805,806,805,806,805,806,805,806,805,806,805,806,805,806,805,806,805,806,805,806,805,806,805,807,808,0,0,0,0,0,0,0,0,0,0,0,0,0,0,0,0,0,0,0,0,0,0,0,0,0,0,0,0,1697,
1697,0,0,0,0,0,0,0,0,0,0,0,0,0,0,0,0,0,0,0,0,0,0,0,0,0,0,0,0,0,400,401,402,403,404,0,0,0,0,0,0,0,0,0,514,515,516,517,518,0,0,286,287,288,289,290,1030,1031,1032,1030,1031,1032,1030,1031,1032,1030,1031,1032,1030,1031,1032,1088,1089,1087,1088,1089,1087,1088,1089,1087,1088,1089,1087,1088,1089,1087,1088,1089,1087,1088,1089,1087,1088,1089,1087,1088,1089,1087,1088,1089,1087,1088,1089,1087,1088,1089,1087,1088,1089,1087,1088,1089,1087,1088,1089,1087,1088,1089,1087,1088,1089,1087,1088,1089,1087,1088,1089,1087,1088,1089,1087,1088,1089,1087,1088,1089,1087,1088,1089,1087,1088,1089,1087,1088,1089,1087,1088,1089,1087,1088,1089,1087,803,804,805,806,805,806,805,806,805,806,805,806,805,806,805,806,805,806,805,806,805,806,805,806,805,806,866,866,805,806,805,806,805,806,805,806,805,806,805,806,805,806,805,806,805,806,805,806,805,806,805,806,805,806,805,806,805,807,808,0,0,0,0,0,0,0,0,0,0,0,0,0,0,0,0,0,0,0,0,0,0,0,0,0,0,0,0,1697,
1697,0,0,0,0,0,0,0,0,0,0,0,0,0,0,0,0,0,0,0,0,0,0,0,0,0,0,0,0,0,400,401,402,403,404,0,0,0,0,0,0,0,0,0,0,0,0,0,0,0,0,343,344,345,346,347,1087,1088,1089,1087,1088,1089,1087,1088,1089,1087,1088,1089,1087,1088,1089,1145,1146,1144,1145,1146,1144,1145,1146,1144,1145,1146,1144,1145,1146,1144,1145,1146,1144,1145,1146,1144,1145,1146,1144,1145,1146,1144,1145,1146,1144,1145,1146,1144,1145,1146,1144,1145,1146,1144,1145,1146,1144,1145,1146,1144,1145,1146,1144,1145,1146,1144,1145,1146,1144,1145,1146,1144,1145,1146,1144,1145,1146,1144,1145,1146,1144,1145,1146,1144,1145,1146,1144,1145,1146,1144,1145,1146,1144,1145,1146,1144,803,804,805,806,805,806,805,806,805,806,805,806,805,806,805,806,805,806,805,806,805,806,805,806,805,806,866,866,805,806,805,806,805,806,805,806,805,806,805,806,805,806,805,806,805,806,805,806,805,806,805,806,805,806,805,806,805,807,808,0,0,0,0,0,0,0,0,0,0,0,0,0,0,0,0,0,0,0,0,0,0,0,0,0,0,0,0,1697,
1697,0,0,0,0,0,0,0,0,0,0,0,0,0,0,0,0,0,0,0,0,0,0,0,0,0,0,0,0,0,400,401,402,403,404,0,0,0,0,0,0,0,0,0,0,0,0,0,0,0,0,400,401,402,403,404,1144,1145,1146,1144,1145,1146,1144,1145,1146,1144,1145,1146,1144,1145,1146,974,975,973,974,975,973,974,975,973,974,975,973,974,975,973,974,975,973,974,975,973,974,975,973,974,975,973,974,975,973,974,975,973,974,975,973,974,975,973,974,975,973,974,975,973,974,975,973,974,975,973,974,975,973,974,975,973,974,975,973,974,975,973,974,975,973,974,975,973,974,975,973,974,975,973,974,975,973,974,975,973,803,804,805,806,805,806,805,806,805,806,805,806,805,806,805,806,805,806,805,806,805,806,805,806,805,806,923,923,805,806,805,806,805,806,805,806,805,806,805,806,805,806,805,806,805,806,805,806,805,806,805,806,805,806,805,806,805,807,808,0,0,0,0,0,0,0,0,0,0,0,0,0,0,0,0,0,0,0,0,0,0,0,0,0,0,0,0,1697,
1697,0,0,0,0,0,0,0,0,0,0,0,0,0,0,0,0,0,0,0,0,0,0,286,287,288,289,290,0,0,400,401,402,403,404,0,0,286,287,288,289,290,0,0,0,0,0,0,0,0,0,400,401,402,403,404,973,974,975,973,974,975,973,974,975,973,974,975,973,974,975,1031,1032,1030,1031,1032,1030,1031,1032,1030,1031,1032,1030,1031,1032,1030,1031,1032,1030,1031,1032,1030,1031,1032,1030,1031,1032,1030,1031,1032,1030,1031,1032,1030,1031,1032,1030,1031,1032,1030,1031,1032,1030,1031,1032,1030,1031,1032,1030,1031,1032,1030,1031,1032,1030,1031,1032,1030,1031,1032,1030,1031,1032,1030,1031,1032,1030,1031,1032,1030,1031,1032,1030,1031,1032,1030,1031,1032,1030,1031,1032,1030,803,804,805,806,805,806,805,806,805,806,805,806,805,806,805,806,805,806,805,806,805,806,805,806,805,806,923,923,805,806,805,806,805,806,805,806,805,806,805,806,805,806,805,806,805,806,805,806,805,806,805,806,805,806,805,806,805,807,808,0,0,0,0,0,0,0,0,0,0,0,0,0,0,0,0,0,0,0,0,0,0,0,0,0,0,0,0,1697,
1697,0,0,0,0,0,0,0,0,0,0,0,0,0,0,0,0,0,0,0,0,0,0,343,344,345,346,347,0,0,400,401,402,403,404,0,0,343,344,345,346,347,0,0,0,0,0,0,0,0,0,400,401,402,403,404,1030,1031,1032,1030,1031,1032,1030,1031,1032,1030,1031,1032,1030,1031,1032,1088,1089,1087,1088,1089,1087,1088,1089,1087,1088,1089,1087,1088,1089,1087,1088,1089,1087,1088,1089,1087,1088,1089,1087,1088,1089,1087,1088,1089,1087,1088,1089,1087,1088,1089,1087,1088,1089,1087,1088,1089,1087,1088,1089,1087,1088,1089,1087,1088,1089,1087,1088,1089,1087,1088,1089,1087,1088,1089,1087,1088,1089,1087,1088,1089,1087,1088,1089,1087,1088,1089,1087,1088,1089,1087,1088,1089,1087,1088,1089,1087,803,804,805,806,805,806,805,806,805,806,805,806,805,806,805,806,805,806,805,806,805,806,805,806,805,806,866,866,805,806,805,806,805,806,805,806,805,806,805,806,805,806,805,806,805,806,805,806,805,806,805,806,805,806,805,806,805,807,808,0,0,0,0,0,0,0,0,0,0,0,0,0,0,0,0,0,0,0,0,0,0,0,0,0,0,0,0,1697,
1697,0,0,0,0,0,291,292,293,0,0,0,0,0,291,292,293,0,0,0,0,0,0,400,401,402,403,404,0,0,514,515,516,517,518,0,0,400,401,402,403,404,0,0,0,0,0,0,0,0,0,400,401,402,403,404,1087,1088,1089,1087,1088,1089,1087,1088,1089,1087,1088,1089,1087,1088,1089,1145,1146,1144,1145,1146,1144,1145,1146,1144,1145,1146,1144,1145,1146,1144,1145,1146,1144,1145,1146,1144,1145,1146,1144,1145,1146,1144,1145,1146,1144,1145,1146,1144,1145,1146,1144,1145,1146,1144,1145,1146,1144,1145,1146,1144,1145,1146,1144,1145,1146,1144,1145,1146,1144,1145,1146,1144,1145,1146,1144,1145,1146,1144,1145,1146,1144,1145,1146,1144,1145,1146,1144,1145,1146,1144,1145,1146,1144,1145,1146,1144,803,804,805,806,805,806,805,806,805,806,805,806,805,806,805,806,805,806,805,806,805,806,805,806,805,806,866,866,805,806,805,806,805,806,805,806,805,806,805,806,805,806,805,806,805,806,805,806,805,806,805,806,805,806,805,806,805,807,808,0,0,0,0,0,0,0,0,0,0,0,0,0,0,0,0,0,0,0,0,0,0,0,0,0,0,0,0,1697,
1697,0,0,0,0,0,348,349,350,0,0,0,0,0,348,349,350,0,0,0,0,0,0,400,401,402,403,404,0,0,0,0,0,0,0,0,0,400,401,402,403,404,0,0,0,0,0,0,0,0,0,400,401,402,403,404,1144,1145,1146,1144,1145,1146,1144,1145,1146,1144,1145,1146,1144,1145,1146,974,975,973,974,975,973,974,975,973,974,975,973,974,975,973,974,975,973,974,975,973,974,975,973,974,975,973,974,975,973,974,975,973,974,975,973,974,975,973,974,975,973,974,975,973,974,975,973,974,975,973,974,975,973,974,975,973,974,975,973,974,975,973,974,975,973,974,975,973,974,975,973,974,975,973,974,975,973,974,975,973,803,804,805,806,805,806,805,806,805,806,805,806,805,806,805,806,805,806,805,806,805,806,805,806,805,806,923,923,805,806,805,806,805,806,805,806,805,806,805,806,805,806,805,806,805,806,805,806,805,806,805,806,805,806,805,806,805,807,808,0,0,0,0,0,0,0,0,0,0,0,0,0,0,0,0,0,0,0,0,0,0,0,0,0,0,0,0,1697,
1697,286,287,288,289,287,288,289,287,288,289,287,288,289,287,288,289,287,288,289,290,0,0,400,401,402,403,404,0,0,0,0,0,0,0,0,0,400,401,402,403,404,0,0,0,0,0,0,0,0,0,514,515,516,517,518,973,974,975,973,974,975,973,974,975,973,974,975,973,974,975,1031,1032,1030,1031,1032,1030,1031,1032,1030,1031,1032,1030,1031,1032,1030,1031,1032,1030,1031,1032,1030,1031,1032,1030,1031,1032,1030,1031,1032,1030,1031,1032,1030,1031,1032,1030,1031,1032,1030,1031,1032,1030,1031,1032,1030,1031,1032,1030,1031,1032,1030,1031,1032,1030,1031,1032,1030,1031,1032,1030,1031,1032,1030,1031,1032,1030,1031,1032,1030,1031,1032,1030,1031,1032,1030,1031,1032,1030,1031,1032,1030,803,804,805,806,805,806,805,806,805,806,805,806,805,806,805,806,805,806,805,806,805,806,805,806,805,806,923,923,805,806,805,806,805,806,805,806,805,806,805,806,805,806,805,806,805,806,805,806,805,806,805,806,805,806,805,806,805,807,808,0,0,0,0,0,0,0,0,0,0,0,0,0,0,0,0,0,0,0,0,0,0,0,0,0,0,0,0,1697,
1697,343,344,345,346,344,345,346,344,345,346,344,345,346,344,345,346,344,345,346,347,0,0,400,401,402,403,404,0,0,0,0,0,0,0,0,0,400,401,402,403,404,0,0,0,0,0,0,0,0,0,0,0,0,0,0,1030,1031,1032,1030,1031,1032,1030,1031,1032,1030,1031,1032,1030,1031,1032,1088,1089,1087,1088,1089,1087,1088,1089,1087,1088,1089,1087,1088,1089,1087,1088,1089,1087,1088,1089,1087,1088,1089,1087,1088,1089,1087,1088,1089,1087,1088,1089,1087,1088,1089,1087,1088,1089,1087,1088,1089,1087,1088,1089,1087,1088,1089,1087,1088,1089,1087,1088,1089,1087,1088,1089,1087,1088,1089,1087,1088,1089,1087,1088,1089,1087,1088,1089,1087,1088,1089,1087,1088,1089,1087,1088,1089,1087,1088,1089,1087,803,804,805,806,805,806,805,806,805,806,805,806,805,806,805,806,805,806,805,806,805,806,805,806,805,806,866,866,805,806,805,806,805,806,805,806,805,806,805,806,805,806,805,806,805,806,805,806,805,806,805,806,805,806,805,806,805,807,808,0,0,0,0,0,0,0,0,0,0,0,0,0,0,0,0,0,0,0,0,0,0,0,0,0,0,0,0,1697,
1697,400,401,402,403,401,402,403,401,402,403,401,402,403,401,402,403,401,402,403,404,0,0,400,401,402,403,404,0,0,0,0,0,0,0,0,0,400,401,402,403,404,0,0,0,0,0,0,0,0,0,0,0,0,0,0,1087,1088,1089,1087,1088,1089,1087,1088,1089,1087,1088,1089,1087,1088,1089,1145,1146,1144,1145,1146,1144,1145,1146,1144,1145,1146,1144,1145,1146,1144,1145,1146,1144,1145,1146,1144,1145,1146,1144,1145,1146,1144,1145,1146,1144,1145,1146,1144,1145,1146,1144,1145,1146,1144,1145,1146,1144,1145,1146,1144,1145,1146,1144,1145,1146,1144,1145,1146,1144,1145,1146,1144,1145,1146,1144,1145,1146,1144,1145,1146,1144,1145,1146,1144,1145,1146,1144,1145,1146,1144,1145,1146,1144,1145,1146,1144,803,804,805,806,805,806,805,806,805,806,805,806,805,806,805,806,805,806,805,806,805,806,805,806,805,806,866,866,805,806,805,806,805,806,805,806,805,806,805,806,805,806,805,806,805,806,805,806,805,806,805,806,805,806,805,806,805,807,808,0,0,0,0,0,0,0,0,0,0,0,0,0,0,0,0,0,0,0,0,0,0,0,0,0,0,0,0,1697,
1697,400,401,402,403,401,402,403,401,402,403,401,402,403,401,402,403,401,402,403,404,0,0,514,515,516,517,518,0,0,0,0,0,0,0,0,0,514,515,516,517,518,0,0,0,0,0,0,0,0,0,0,0,0,0,0,1144,1145,1146,1144,1145,1146,1144,1145,1146,1144,1145,1146,1144,1145,1146,974,975,973,974,975,973,974,975,973,974,975,973,974,975,973,974,975,973,974,975,973,974,975,973,974,975,973,974,975,973,974,975,973,974,975,973,974,975,973,974,975,973,974,975,973,974,975,973,974,975,973,974,975,973,974,975,973,974,975,973,974,975,973,974,975,973,974,975,973,974,975,973,974,975,973,974,975,973,974,975,973,803,804,805,806,805,806,805,806,805,806,805,806,805,806,805,806,805,806,805,806,805,806,805,806,805,806,923,923,805,806,805,806,805,806,805,806,805,806,805,806,805,806,805,806,805,806,805,806,805,806,805,806,805,806,805,806,805,807,808,0,0,0,0,0,0,0,0,0,0,0,0,0,0,0,0,0,0,0,0,0,0,0,0,0,0,0,0,1697,
1697,400,401,402,403,401,402,403,401,402,403,401,402,403,401,402,403,401,402,403,404,0,0,0,0,0,0,0,0,0,0,0,0,0,0,0,0,0,0,0,0,0,0,0,0,0,0,0,0,0,0,0,0,0,0,0,973,974,975,973,974,975,973,974,975,973,974,975,973,974,975,1031,1032,1030,1031,1032,1030,1031,1032,1030,1031,1032,1030,1031,1032,1030,1031,1032,1030,1031,1032,1030,1031,1032,1030,1031,1032,1030,1031,1032,1030,1031,1032,1030,1031,1032,1030,1031,1032,1030,1031,1032,1030,1031,1032,1030,1031,1032,1030,1031,1032,1030,1031,1032,1030,1031,1032,1030,1031,1032,1030,1031,1032,1030,1031,1032,1030,1031,1032,1030,1031,1032,1030,1031,1032,1030,1031,1032,1030,1031,1032,1030,803,804,805,806,805,806,805,806,805,806,805,806,805,806,805,806,805,806,805,806,805,806,805,806,805,806,923,923,805,806,805,806,805,806,805,806,805,806,805,806,805,806,805,806,805,806,805,806,805,806,805,806,805,806,805,806,805,807,808,0,0,0,0,0,0,0,0,0,0,0,0,0,0,0,0,0,0,0,0,0,0,0,0,0,0,0,0,1697,
1697,400,401,402,403,401,402,403,401,402,403,401,402,403,401,402,403,401,402,403,404,0,0,0,0,0,0,0,0,0,0,0,0,0,0,0,0,0,0,0,0,0,0,0,0,0,0,0,0,0,0,0,0,0,0,0,1030,1031,1032,1030,1031,1032,1030,1031,1032,1030,1031,1032,1030,1031,1032,1088,1089,1087,1088,1089,1087,1088,1089,1087,1088,1089,1087,1088,1089,1087,1088,1089,1087,1088,1089,1087,1088,1089,1087,1088,1089,1087,1088,1089,1087,1088,1089,1087,1088,1089,1087,1088,1089,1087,1088,1089,1087,1088,1089,1087,1088,1089,1087,1088,1089,1087,1088,1089,1087,1088,1089,1087,1088,1089,1087,1088,1089,1087,1088,1089,1087,1088,1089,1087,1088,1089,1087,1088,1089,1087,1088,1089,1087,1088,1089,1087,803,804,805,806,805,806,805,806,805,806,805,806,805,806,805,806,805,806,805,806,805,806,805,806,805,806,866,866,805,806,805,806,805,806,805,806,805,806,805,806,805,806,805,806,805,806,805,806,805,806,805,806,805,806,805,806,805,807,808,0,0,0,0,0,0,0,0,0,0,0,0,0,0,0,0,0,0,0,0,0,0,0,0,0,0,0,0,1697,
1697,514,515,516,517,515,516,517,515,516,517,515,516,517,515,516,517,515,516,517,518,0,0,0,0,0,0,0,0,0,0,0,0,0,0,0,0,0,0,0,0,0,0,0,0,0,0,0,0,0,0,0,0,0,0,0,1087,1088,1089,1087,1088,1089,1087,1088,1089,1087,1088,1089,1087,1088,1089,1145,1146,1144,1145,1146,1144,1145,1146,1144,1145,1146,1144,1145,1146,1144,1145,1146,1144,1145,1146,1144,1145,1146,1144,1145,1146,1144,1145,1146,1144,1145,1146,1144,1145,1146,1144,1145,1146,1144,1145,1146,1144,1145,1146,1144,1145,1146,1144,1145,1146,1144,1145,1146,1144,1145,1146,1144,1145,1146,1144,1145,1146,1144,1145,1146,1144,1145,1146,1144,1145,1146,1144,1145,1146,1144,1145,1146,1144,1145,1146,1144,803,804,805,806,805,806,805,806,805,806,805,806,805,806,805,806,805,806,805,806,805,806,805,806,805,806,866,866,805,806,805,806,805,806,805,806,805,806,805,806,805,806,805,806,805,806,805,806,805,806,805,806,805,806,805,806,805,807,808,0,0,0,0,0,0,0,0,0,0,0,0,0,0,0,0,0,0,0,0,0,0,0,0,0,0,0,0,1697,
1697,0,0,0,0,0,0,0,0,0,0,0,0,0,0,0,0,0,0,0,0,0,0,0,0,0,0,0,0,0,0,0,0,0,0,0,0,0,0,0,0,0,0,0,0,0,0,0,0,0,0,0,0,0,0,0,1144,1145,1146,1144,1145,1146,1144,1145,1146,1144,1145,1146,1144,1145,1146,974,975,973,974,975,973,974,975,973,974,975,973,974,975,973,974,975,973,974,975,973,974,975,973,974,975,973,974,975,973,974,975,973,974,975,973,974,975,973,974,975,973,974,975,973,974,975,973,974,975,973,974,975,973,974,975,973,974,975,973,974,975,973,974,975,973,974,975,973,974,975,973,974,975,973,974,975,973,974,975,973,803,804,805,806,805,806,805,806,805,806,805,806,805,806,805,806,805,806,805,806,805,806,805,806,805,806,923,923,805,806,805,806,805,806,805,806,805,806,805,806,805,806,805,806,805,806,805,806,805,806,805,806,805,806,805,806,805,807,808,0,0,0,0,0,0,0,0,0,0,0,0,0,0,0,0,0,0,0,0,0,0,0,0,0,0,0,0,1697
</data>
 </layer>
 <objectgroup id="5" name="platforms">
  <object id="246" name="dissapears" x="1564.67" y="424" width="67" height="22"/>
  <object id="247" name="dissapears" x="2000" y="416" width="67" height="22"/>
  <object id="248" name="dissapears" x="2144" y="384" width="67" height="22"/>
  <object id="295" name="dissapears" x="3558" y="616.5" width="83" height="39.5"/>
  <object id="296" name="dissapears" x="3001.5" y="411.25" width="83" height="39.5"/>
 </objectgroup>
 <objectgroup id="6" name="traps">
  <object id="202" name="trap1" x="108.5" y="1148.5" width="38.75" height="14.5"/>
  <object id="203" name="trap1" x="177" y="1147" width="40.75" height="16"/>
  <object id="225" name="trap1" x="1089" y="315" width="17.5" height="21.5"/>
  <object id="226" name="trap1" x="1249" y="315" width="17.5" height="21.5"/>
  <object id="227" name="trap1" x="1448.25" y="315" width="17.5" height="21.5"/>
  <object id="228" name="trap1" x="1537" y="315" width="17.5" height="21.5"/>
  <object id="254" name="trap1" x="2529" y="699" width="65.5" height="21.5"/>
  <object id="255" name="trap1" x="2641" y="699" width="17.5" height="21.5"/>
  <object id="256" name="trap1" x="3041" y="699" width="17.5" height="21.5"/>
  <object id="257" name="trap1" x="3169" y="699" width="17.5" height="21.5"/>
  <object id="310" name="trap3" x="1150" y="299" width="96" height="21"/>
  <object id="311" name="trap2" x="1350" y="285" width="51" height="35"/>
  <object id="312" name="trap2" x="2750" y="669" width="51" height="35"/>
  <object id="313" name="trap3" x="3250" y="683" width="96" height="21"/>
  <object id="314" name="trap4" x="2960" y="616" width="23" height="88"/>
 </objectgroup>
 <objectgroup id="7" name="items">
  <object id="204" name="coin" x="64" y="1104" width="25" height="25"/>
  <object id="207" name="coin" x="400" y="1040" width="25" height="25"/>
  <object id="210" name="coin" x="624" y="1040" width="25" height="25"/>
  <object id="213" name="coin" x="848" y="992" width="25" height="25"/>
  <object id="218" name="coin" x="944" y="752" width="25" height="25"/>
  <object id="220" name="coin" x="943.25" y="489.25" width="25" height="25"/>
  <object id="229" name="coin" x="1152" y="256" width="25" height="25"/>
  <object id="230" name="coin" x="1472" y="256" width="25" height="25"/>
  <object id="239" name="coin" x="1792" y="368" width="25" height="25"/>
  <object id="242" name="coin" x="2080" y="304" width="25" height="25"/>
  <object id="245" name="coin" x="2352" y="240" width="25" height="25"/>
  <object id="258" name="coin" x="2592" y="656" width="25" height="25"/>
  <object id="259" name="coin" x="2752" y="656" width="25" height="25"/>
  <object id="260" name="coin" x="2976" y="656" width="25" height="25"/>
  <object id="261" name="coin" x="3120" y="656" width="25" height="25"/>
  <object id="262" name="coin" x="3280" y="656" width="25" height="25"/>
  <object id="269" name="coin" x="3472" y="400" width="25" height="25"/>
  <object id="271" name="coin" x="3472" y="176" width="25" height="25"/>
  <object id="320" name="diamond" x="1050" y="270" width="24" height="24"/>
  <object id="321" name="possion" x="3300" y="660" width="24" height="24"/>
 </objectgroup>
 <objectgroup id="3" name="spawn">
  <object id="214" name="enemy01" x="497.25" y="989" width="18.75" height="17.3"/>
  <object id="221" name="enemy01" x="923.75" y="528.5" width="25.75" height="26.8"/>
  <object id="234" name="enemy01" x="1362" y="267.75" width="33.5" height="41.3"/>
  <object id="249" name="enemy01" x="1915.5" y="432" width="33.5" height="41.3"/>
  <object id="251" name="enemy01" x="2848" y="657" width="33.5" height="41.3"/>
  <object id="263" name="enemy01" x="2688" y="701" width="33.5" height="41.3"/>
  <object id="265" name="enemy01" x="3232" y="701" width="33.5" height="41.3"/>
  <object id="272" name="enemy01" x="3472" y="221" width="33.5" height="41.3"/>
  <object id="300" name="saw" x="2600" y="647" width="57" height="57"/>
  <object id="301" name="saw" x="3050" y="647" width="57" height="57"/>
  <object id="302" name="saw" x="1250" y="263" width="57" height="57"/>
  <object id="303" name="bee" x="600" y="900" width="64" height="64"/>
  <object id="304" name="bee" x="950" y="650" width="64" height="64"/>
  <object id="305" name="bee" x="1300" y="250" width="64" height="64"/>
  <object id="306" name="bee" x="2100" y="450" width="64" height="64"/>
 </objectgroup>
 <objectgroup id="4" name="EnemiesColliders">
  <object id="215" name="enemy_collider" x="532.25" y="983.5" width="12.35" height="24.05"/>
  <object id="222" name="enemy_collider" x="966" y="528.25" width="16.35" height="26.8"/>
  <object id="235" name="enemy_collider" x="1403.75" y="270.5" width="20.1" height="41.3"/>
  <object id="250" name="enemy_collider" x="1961" y="429.5" width="20.1" height="41.3"/>
  <object id="252" name="enemy_collider" x="2897" y="659" width="20.1" height="41.3"/>
  <object id="264" name="enemy_collider" x="2732" y="704" width="20.1" height="41.3"/>
  <object id="266" name="enemy_collider" x="3276" y="704" width="20.1" height="41.3"/>
  <object id="273" name="enemy_collider" x="3516" y="224" width="20.1" height="41.3"/>
 </objectgroup>
 <objectgroup id="2" name="colliders">
  <object id="201" name="floor" x="18.75" y="1164.5" width="317.25" height="101"/>
  <object id="205" name="die" x="336" y="1232" width="560" height="48"/>
  <object id="206" name="floor" x="368" y="1098.75" width="80" height="116.75"/>
  <object id="208" name="floor" x="483.5" y="1018.75" width="77.5" height="118"/>
  <object id="209" name="floor" x="595.25" y="1100" width="75.75" height="116.25"/>
  <object id="211" name="floor" x="707.619" y="937.454" width="75.7647" height="118.464" rotation="0.475383"/>
  <object id="212" name="floor" x="816.5" y="1052.25" width="78.5" height="116.75"/>
  <object id="217" name="floor" x="896" y="800" width="112" height="32"/>
  <object id="219" name="floor" x="896" y="560" width="112" height="32"/>
  <object id="223" name="die" x="917.667" y="940.833" width="698.333" height="339.167"/>
  <object id="224" name="floor" x="1008" y="320" width="608" height="16"/>
  <object id="236" name="die" x="1617" y="940.5" width="817.167" height="336.5"/>
  <object id="237" name="floor" x="1616" y="480" width="80" height="32"/>
  <object id="238" name="floor" x="1760" y="416" width="80" height="32"/>
  <object id="240" name="floor" x="1904" y="480" width="80" height="30"/>
  <object id="241" name="floor" x="2048" y="352" width="80" height="32"/>
  <object id="243" name="floor" x="2192" y="448" width="80" height="32"/>
  <object id="244" name="floor" x="2320" y="288" width="96" height="32"/>
  <object id="253" name="floor" x="2432" y="704" width="944" height="576"/>
  <object id="268" name="floor" x="3408" y="448" width="160" height="32"/>
  <object id="270" name="floor" x="3408" y="224" width="160" height="32"/>
  <object id="275" name="win" x="3697.67" y="16.6667" width="126.667" height="147.333"/>
  <object id="276" name="wall" x="0" y="0" width="16" height="1280"/>
  <object id="277" name="wall" x="3824" y="0" width="16" height="1280"/>
  <object id="278" name="wall" x="0" y="0" width="3840" height="16"/>
  <object id="279" name="floor" x="2353.25" y="901" width="30.5" height="41.5"/>
  <object id="280" name="floor" x="1968.5" y="900" width="30.5" height="41.5"/>
  <object id="281" name="floor" x="1602.25" y="900.75" width="30.5" height="41.5"/>
  <object id="282" name="floor" x="1264.75" y="901.25" width="30.5" height="41.5"/>
  <object id="283" name="floor" x="771" y="672.25" width="48.5" height="14"/>
  <object id="284" name="floor" x="706" y="656.25" width="48.5" height="14"/>
  <object id="285" name="floor" x="834.75" y="687.5" width="48.5" height="14"/>
  <object id="286" name="floor" x="224" y="1132.5" width="48.5" height="14"/>
  <object id="287" name="floor" x="97" y="1132.75" width="48.5" height="14"/>
  <object id="288" name="floor" x="113.333" y="779.333" width="332" height="70"/>
  <object id="289" name="floor" x="113.667" y="683" width="333.333" height="37"/>
 </objectgroup>
</map>
