<?xml version="1.0" encoding="UTF-8"?>
<map version="1.10" tiledversion="1.12.1" orientation="orthogonal" renderorder="right-down" width="200" height="80" tilewidth="16" tileheight="16" infinite="0" nextlayerid="8" nextobjectid="156">
 <tileset firstgid="1" source="forest si.tsx"/>
 <layer id="1" name="platform" width="200" height="80">
  <data encoding="csv">
1697,1698,1698,1698,1698,1698,1698,1698,1698,1698,1698,1698,1698,1698,1698,1698,1698,1698,1698,1698,1698,1698,1698,1698,1698,1698,1698,1698,1698,1698,1698,1698,1698,1698,1698,1698,1698,1698,1698,1698,1698,1698,1698,1698,1698,1698,1698,1698,1698,1698,1698,1698,1698,1698,1698,1698,1698,1698,1698,1698,1698,1698,1698,1698,1698,1698,1698,1698,1698,1698,1698,1698,1698,1698,1698,1698,1698,1698,1698,1698,1698,1698,1698,1698,1698,1698,1698,1698,1698,1698,1698,1698,1698,1698,1698,1698,1698,1698,1698,1698,1698,1698,1698,1698,1698,1698,1698,1698,1698,1698,1698,1698,1698,1698,1698,1698,1698,1698,1698,1698,1698,1698,1698,1698,1698,1698,1698,1698,1698,1698,1698,1698,1698,1698,1698,1698,1698,1698,1698,1698,1698,1698,1698,1698,1698,1698,1698,1698,1698,1698,1698,1698,1698,1698,1698,1698,1698,1698,1698,1698,1698,1698,1698,1698,1698,1698,1698,1698,1698,1698,1698,1698,1698,1698,1698,1698,1698,1698,1698,1698,1698,1698,1698,1698,1698,1698,1698,1698,1698,1698,1698,1698,1698,1698,1698,1698,1698,1698,1698,1697,
1697,0,0,0,0,0,0,0,0,0,0,0,0,0,0,0,0,0,0,0,0,0,0,0,0,0,0,0,0,0,0,0,0,0,0,0,0,0,0,0,0,0,0,0,0,0,0,0,0,0,0,0,0,0,0,0,0,0,0,0,0,0,0,0,0,0,0,0,0,0,0,0,0,0,0,0,0,0,0,0,0,0,0,0,0,0,0,0,0,0,0,0,0,0,0,0,0,0,0,0,0,0,0,0,0,0,0,0,0,0,0,0,0,0,0,0,0,0,0,0,0,0,0,0,0,0,0,0,0,0,0,0,0,0,0,0,0,0,0,0,0,0,0,0,0,0,0,0,0,0,0,0,0,0,0,0,0,0,0,0,0,0,0,0,0,0,0,0,0,0,0,0,0,0,0,0,0,0,0,0,0,0,0,0,0,0,0,0,0,0,0,48,49,50,51,52,53,54,55,1697,
1697,0,0,0,0,0,0,0,0,0,0,0,0,0,0,0,0,0,0,0,0,0,0,0,0,0,0,0,0,0,0,0,0,0,0,0,0,0,0,0,0,0,0,0,0,0,0,0,0,0,0,0,0,0,0,0,0,0,0,0,0,0,0,0,0,0,0,0,0,0,0,0,0,0,0,0,0,0,0,0,0,0,0,0,0,0,0,0,0,0,0,0,0,0,0,0,0,0,0,0,0,0,0,0,0,0,0,0,0,0,0,0,0,0,0,0,0,0,0,0,0,0,0,0,0,0,0,0,0,0,0,0,0,0,0,0,0,0,0,0,0,0,0,0,0,0,0,0,0,0,0,0,0,0,0,0,0,0,0,0,0,0,0,0,0,0,0,0,0,0,0,0,0,0,0,0,0,0,0,0,0,0,0,0,0,0,0,0,0,0,0,105,106,107,108,109,110,111,112,1697,
1697,0,0,0,0,0,0,0,0,0,0,0,0,0,0,0,0,0,0,0,0,0,0,0,0,0,0,0,0,0,0,0,0,0,0,0,0,0,0,0,0,0,0,0,0,0,0,0,0,0,0,0,0,0,0,0,0,0,0,0,0,0,0,0,0,0,0,0,0,0,0,0,0,0,0,0,0,0,0,0,0,0,0,0,0,0,0,0,0,0,0,0,0,0,0,0,0,0,0,0,0,0,0,0,0,0,0,0,0,0,0,0,0,0,0,0,0,0,0,0,0,0,0,0,0,0,0,0,0,0,0,0,0,0,0,0,0,0,0,0,0,0,0,0,0,0,0,0,0,0,0,0,0,0,0,0,0,0,0,0,0,0,0,0,0,0,0,0,0,0,0,0,0,0,0,0,0,0,0,0,0,0,0,0,0,0,0,0,0,0,0,162,163,164,165,166,167,168,169,1697,
1697,0,0,0,0,0,0,0,0,0,0,0,0,0,0,0,0,0,0,0,0,0,0,0,0,0,0,0,0,0,0,0,0,0,0,0,0,0,0,0,0,0,0,0,0,0,0,0,0,0,0,0,0,0,0,0,0,0,0,0,0,0,0,0,0,0,0,0,0,0,0,0,0,0,0,0,0,0,0,0,0,0,0,0,0,0,0,0,0,0,0,0,0,0,0,0,0,0,0,0,0,0,0,0,0,0,0,0,0,0,0,0,0,0,0,0,0,0,0,0,0,0,0,0,0,0,0,0,0,0,0,0,0,0,0,0,0,0,0,0,0,0,0,0,0,0,0,0,0,0,0,0,0,0,0,0,0,0,0,0,0,0,0,0,0,0,0,0,0,0,0,0,0,0,0,0,0,0,0,0,0,0,0,0,0,0,0,0,0,0,0,219,220,221,222,223,224,225,226,1697,
1697,0,0,0,0,0,0,0,0,0,0,0,0,0,0,0,0,0,0,0,0,0,0,0,0,0,0,0,0,0,0,0,0,0,0,0,0,0,0,0,0,0,0,0,0,0,0,0,0,0,0,0,0,0,0,0,0,0,0,0,0,0,0,0,0,0,0,0,0,0,0,0,0,0,0,0,0,0,0,0,0,0,0,0,0,0,0,0,0,0,0,0,0,0,0,0,0,0,0,0,0,0,0,0,0,0,0,0,0,0,0,0,0,0,0,0,0,0,0,0,0,0,0,0,0,0,0,0,0,0,0,0,0,0,0,0,0,0,0,0,0,0,0,0,0,0,0,0,0,0,0,0,0,0,0,0,0,0,0,0,0,0,0,0,0,0,0,0,0,0,0,0,0,0,0,0,0,0,0,0,0,0,0,0,0,0,0,0,0,0,0,276,277,278,279,280,281,282,283,1697,
1697,0,0,0,0,0,0,0,0,0,0,0,0,0,0,0,0,0,0,0,0,0,0,0,0,0,0,0,0,0,0,0,0,0,0,0,0,0,0,0,0,0,0,0,0,0,0,0,0,0,0,0,0,0,0,0,0,0,0,0,0,0,0,0,0,0,0,0,0,0,0,0,0,0,0,0,0,0,0,0,0,0,0,0,0,0,0,0,0,0,0,0,0,0,0,0,0,0,0,0,0,0,0,0,0,0,0,0,0,0,0,0,0,0,0,0,0,0,0,0,0,0,0,0,0,0,0,0,0,0,0,0,0,0,0,0,0,0,0,0,0,0,0,0,0,0,0,0,0,0,0,0,0,0,0,0,0,0,0,0,0,0,0,0,0,0,0,0,0,0,0,0,0,0,0,0,0,0,0,0,0,0,0,0,0,0,0,0,0,0,0,333,334,335,336,337,338,339,340,1697,
1697,0,0,0,0,0,0,0,0,0,0,0,0,0,0,0,0,0,0,0,0,0,0,0,0,0,0,0,0,0,0,0,0,0,0,0,0,0,0,0,0,0,0,0,0,0,0,0,0,0,0,0,0,0,0,0,0,0,0,0,0,0,0,0,0,0,0,0,0,0,0,0,0,0,0,0,0,0,0,0,0,0,0,0,0,0,0,0,0,0,0,0,0,0,0,0,0,0,0,0,0,0,0,0,0,0,0,0,0,0,0,0,0,0,0,0,0,0,0,0,0,0,0,0,0,0,0,0,0,0,0,0,0,0,0,0,0,0,0,0,0,0,0,0,0,0,0,0,0,0,0,0,0,0,0,0,0,0,0,0,0,0,0,0,0,0,0,0,0,0,0,0,0,0,0,0,0,0,0,0,0,0,0,0,0,0,0,0,0,0,0,390,391,392,393,394,395,396,397,1697,
1697,0,0,0,0,0,0,0,0,0,0,0,0,0,0,0,0,0,0,0,0,0,0,0,0,0,0,0,0,0,0,0,0,0,0,0,0,0,0,0,0,0,0,0,0,0,0,0,0,0,0,0,0,0,0,0,0,0,0,0,0,0,0,0,0,0,0,0,0,0,0,0,0,0,0,0,0,0,0,0,0,0,0,0,0,0,0,0,0,0,0,0,0,0,0,0,0,0,0,0,0,0,0,0,0,0,0,0,0,0,0,0,0,0,0,0,0,0,0,0,0,0,0,0,0,0,0,0,0,0,0,0,0,0,0,0,0,0,0,0,0,0,0,0,0,0,0,0,0,0,0,0,0,0,0,0,0,0,0,0,0,0,0,0,0,0,0,0,0,0,0,0,0,0,0,0,0,0,0,581,582,583,584,585,0,0,0,0,0,0,0,447,448,449,450,451,452,453,454,1697,
1697,0,0,0,0,0,0,0,0,0,0,0,0,0,0,0,0,0,0,0,0,0,0,0,0,0,0,0,0,0,0,0,0,0,0,0,0,0,0,0,0,0,0,0,0,0,0,0,0,0,0,0,0,0,0,0,0,0,0,0,0,0,0,0,0,0,0,0,0,0,0,0,0,0,0,0,0,0,0,0,0,0,0,0,0,0,0,0,0,0,0,0,0,0,0,0,0,0,0,0,0,0,0,0,0,0,0,0,0,0,0,0,0,0,0,0,0,0,0,0,0,0,0,0,0,0,0,0,0,0,0,0,0,0,0,0,0,0,0,0,0,0,0,0,0,0,0,0,0,0,0,0,0,0,0,0,0,0,0,0,0,0,0,0,0,0,0,0,0,0,0,0,0,0,0,0,0,0,0,638,639,640,641,642,0,0,0,0,0,0,0,504,505,506,507,508,509,510,511,1697,
1697,0,0,0,0,0,0,0,0,0,0,0,0,0,0,0,291,292,293,291,292,293,291,292,293,0,0,0,0,0,286,287,288,289,287,287,287,287,287,287,287,287,287,287,287,287,287,287,287,287,287,287,287,287,287,287,287,287,287,287,287,287,287,287,287,287,287,287,288,290,0,0,0,0,0,0,0,0,0,0,0,0,0,0,0,0,0,0,0,0,0,0,0,0,0,0,0,0,0,0,0,0,0,0,0,0,0,0,0,0,0,0,0,0,0,0,0,0,0,0,0,0,0,0,0,0,0,0,0,0,0,0,0,0,0,0,0,0,0,0,1,2,3,4,2,3,4,2,3,4,2,3,2,3,4,2,3,4,2,3,4,5,0,0,0,0,0,0,581,582,583,584,585,0,0,0,0,0,0,0,0,0,0,0,0,0,0,0,0,0,0,561,562,563,564,565,566,567,568,1697,
1697,0,0,0,0,0,0,0,0,0,0,0,0,0,0,0,348,349,350,348,349,350,348,349,350,0,0,0,0,0,343,344,345,346,344,344,344,344,344,344,344,344,344,344,344,344,344,344,344,344,344,344,344,344,344,344,344,344,344,344,344,344,344,344,344,344,344,344,345,347,0,0,0,0,0,0,0,0,0,0,0,0,0,0,0,0,0,0,1198,1199,1200,1201,1202,1198,1199,1200,1201,1202,1198,1199,1200,1201,1202,1198,1199,1200,1201,1202,1198,1199,1200,1201,1202,1198,1199,1200,1201,1202,0,0,0,0,0,0,0,0,0,0,0,0,0,0,0,0,0,0,0,0,0,0,58,59,60,61,59,60,61,59,60,61,59,60,59,60,61,59,60,61,59,60,61,62,0,0,0,0,0,0,638,639,640,641,642,0,0,0,0,0,0,0,0,0,0,0,0,0,0,0,0,0,0,0,0,0,0,0,0,0,0,1697,
1697,0,0,0,0,0,0,0,0,0,0,0,0,0,0,0,0,0,0,0,0,0,0,0,0,0,0,0,0,0,400,401,402,403,401,402,403,401,402,403,401,402,403,401,402,403,401,402,403,401,402,403,401,402,403,401,402,403,401,402,403,401,402,403,401,402,403,401,402,404,0,0,0,0,0,0,0,0,0,0,0,0,0,0,0,0,0,0,1255,1256,1257,1258,1259,1255,1256,1257,1258,1259,1255,1256,1257,1258,1259,1255,1256,1257,1258,1259,1255,1256,1257,1258,1259,1255,1256,1257,1258,1259,0,0,0,0,0,0,0,0,0,0,0,0,0,0,0,0,0,0,0,0,0,0,115,116,117,118,116,117,118,116,117,118,116,117,118,116,117,118,116,117,118,116,117,119,0,0,0,0,0,0,0,0,0,0,0,0,0,0,0,0,0,0,0,0,0,0,0,581,582,583,584,585,0,0,0,0,0,0,0,0,0,1697,
1697,0,0,0,0,0,0,0,0,0,0,0,0,0,0,0,0,0,0,0,0,0,0,0,0,0,0,0,0,0,457,401,401,402,401,402,403,401,402,403,401,402,403,401,402,403,401,402,403,401,402,403,401,402,403,401,402,403,401,402,403,401,402,403,401,402,403,401,402,461,0,0,0,0,0,0,0,0,0,0,0,0,0,0,0,0,0,0,866,866,866,866,866,866,866,866,866,866,866,866,866,866,866,866,866,866,866,866,866,866,866,866,866,866,866,866,866,866,0,0,0,0,0,0,0,0,0,0,0,0,0,0,0,0,0,0,0,0,0,0,172,116,117,118,116,117,118,116,117,118,116,117,118,116,117,118,116,117,118,116,117,176,0,0,0,0,0,0,0,0,0,0,0,0,0,0,0,0,0,0,0,0,0,0,0,638,639,640,641,642,0,0,0,0,0,0,0,0,0,1697,
1697,0,0,0,0,0,0,0,0,0,0,0,0,537,0,0,0,0,0,0,0,0,0,0,0,0,0,0,0,0,400,401,402,403,401,402,403,401,402,403,401,402,403,401,402,403,401,402,403,401,402,403,401,402,403,401,402,403,401,402,403,401,402,403,401,402,403,401,402,404,0,0,0,0,0,0,0,0,0,0,0,0,0,0,0,0,0,0,923,923,923,923,923,923,923,923,923,923,923,923,923,923,923,923,923,923,923,923,923,923,923,923,923,923,923,923,923,923,0,0,0,0,0,0,0,0,0,0,0,0,0,0,0,0,0,0,0,0,0,0,115,116,117,118,116,117,118,116,117,118,116,117,118,116,117,118,116,117,118,116,117,176,0,0,0,0,0,0,0,0,0,0,0,0,0,0,0,0,0,0,0,0,0,0,0,0,0,0,0,0,0,0,0,0,0,0,0,0,0,1697,
1697,0,0,0,0,0,0,0,0,0,0,0,0,0,0,0,0,0,0,0,0,0,0,0,0,0,0,0,0,0,457,401,402,403,401,402,403,401,402,403,401,402,403,401,402,403,401,402,403,401,402,403,401,402,403,401,402,403,401,402,403,401,402,403,401,402,403,401,402,461,0,0,0,0,0,0,0,0,0,0,0,0,0,0,0,0,0,0,866,866,866,866,866,866,866,866,866,866,866,866,866,866,866,866,866,866,866,866,866,866,866,866,866,866,866,866,866,866,0,0,0,0,0,0,0,0,291,292,291,292,291,292,293,0,0,0,0,0,0,0,172,116,117,118,116,117,118,116,117,118,116,117,118,116,117,118,116,117,118,116,117,176,0,0,0,0,0,0,0,0,0,0,0,0,0,0,0,0,0,0,0,0,0,0,0,0,0,0,0,0,0,0,0,0,0,0,0,0,0,1697,
1697,0,0,0,0,0,0,0,0,0,0,0,0,0,0,0,0,0,0,0,0,0,0,0,0,0,0,0,0,0,400,401,402,403,401,402,403,401,402,403,401,402,403,401,402,403,401,402,403,401,402,403,401,402,403,401,402,403,401,402,403,401,402,403,401,402,403,401,402,404,0,0,0,0,0,0,0,0,0,0,0,0,0,0,0,0,0,0,923,923,923,923,923,923,923,923,923,923,923,923,923,923,923,923,923,923,923,923,923,923,923,923,923,923,923,923,923,923,0,0,0,0,0,0,0,0,348,349,348,349,348,349,350,0,0,0,0,0,0,0,115,116,117,118,116,117,118,116,117,118,116,117,118,116,117,118,116,117,118,116,117,176,0,0,0,0,0,0,0,0,0,0,0,0,0,0,0,0,0,0,0,0,0,0,0,0,0,0,0,0,0,0,0,0,0,0,0,0,0,1697,
1697,0,0,0,0,0,0,0,0,0,0,0,0,0,0,0,0,0,0,0,0,0,0,0,0,0,0,0,0,0,400,401,401,401,401,402,403,401,402,403,401,402,403,401,402,403,401,402,403,401,402,403,401,402,403,401,402,403,401,402,403,401,402,403,401,402,403,401,402,404,0,0,0,0,0,0,0,0,0,0,0,0,0,0,0,0,0,0,866,866,866,866,866,866,866,866,866,866,866,866,866,866,866,866,866,866,866,866,866,866,866,866,866,866,866,866,866,866,0,0,0,0,0,0,0,0,0,0,0,0,0,0,0,0,0,0,0,0,0,0,172,116,117,118,116,117,118,116,117,118,116,116,117,116,117,118,116,117,118,116,117,176,0,0,0,0,0,0,0,0,0,0,0,0,0,0,0,0,0,0,0,0,0,0,0,0,0,0,0,0,0,0,0,0,0,0,0,0,0,1697,
1697,0,0,0,0,0,0,0,0,0,0,0,0,0,0,0,0,0,0,0,0,0,0,0,0,0,0,0,0,0,457,458,458,458,458,459,460,458,459,460,458,459,460,458,459,460,458,459,460,458,459,460,458,459,460,458,459,460,458,459,460,458,459,460,458,459,460,458,459,461,0,0,0,0,0,0,0,0,0,0,0,0,0,0,0,0,0,0,923,923,923,923,923,923,923,923,923,923,923,923,923,923,923,923,923,923,923,923,923,923,923,923,923,923,923,923,923,923,0,0,0,0,0,0,0,0,0,0,0,0,0,0,0,0,0,0,0,0,0,0,115,173,174,175,173,174,175,173,174,175,173,173,174,173,174,175,173,174,175,173,174,176,0,0,0,0,0,0,0,0,0,0,0,0,0,0,0,0,0,0,0,0,0,0,0,0,0,0,0,0,0,0,0,0,0,0,0,0,0,1697,
1697,0,0,0,0,0,0,0,0,0,0,0,0,0,0,0,0,0,0,0,0,0,0,0,0,0,0,0,0,0,514,515,515,515,515,515,515,515,515,515,515,515,515,515,515,515,515,515,515,515,515,515,515,515,515,515,515,515,515,515,515,515,515,515,515,515,516,517,517,518,0,0,0,0,0,0,0,0,0,0,0,0,0,0,0,0,0,0,866,866,866,866,866,866,866,866,866,866,866,866,866,866,866,866,866,866,866,866,866,866,866,866,866,866,866,866,866,866,0,0,0,0,0,0,0,0,0,0,0,0,0,0,0,0,0,0,0,0,0,0,229,231,231,231,231,231,231,231,231,231,231,231,231,231,231,231,231,231,231,232,232,233,0,0,0,0,0,0,0,0,0,0,0,0,0,0,0,0,0,0,0,0,0,0,0,0,0,0,0,0,0,0,0,0,0,0,0,0,0,1697,
1697,0,0,0,0,0,0,0,0,0,0,0,0,0,0,0,0,0,0,0,0,0,0,0,0,0,0,0,0,0,0,0,0,0,0,0,0,0,0,0,0,0,0,0,0,0,0,0,0,0,0,0,0,0,0,0,0,0,0,0,0,0,0,0,0,0,0,0,0,0,0,0,0,0,0,0,0,0,0,0,0,0,0,0,0,0,0,0,0,0,0,0,0,0,0,0,0,0,0,0,0,0,0,0,0,0,0,0,0,0,0,0,0,0,0,0,0,0,0,0,0,0,0,0,0,0,0,0,0,0,0,0,0,0,0,0,0,0,0,0,0,0,0,0,0,0,0,0,0,0,0,0,0,0,0,0,0,0,0,0,0,0,0,0,0,0,0,0,0,0,0,0,0,0,0,581,582,583,584,585,0,0,0,0,0,0,0,0,0,0,0,0,0,0,0,0,0,0,0,1697,
1697,0,0,0,0,0,0,0,0,0,0,0,0,0,0,581,582,583,584,585,0,0,0,0,0,0,0,0,0,0,0,0,0,0,0,0,0,0,0,0,0,0,0,0,0,0,0,0,0,0,0,0,0,0,0,0,0,0,0,0,0,0,0,0,0,0,0,0,0,0,0,0,0,0,0,0,0,0,0,0,0,0,0,0,0,0,0,0,0,0,0,0,0,0,0,0,0,0,0,0,0,0,0,0,0,0,0,0,0,0,0,0,0,0,0,0,0,0,0,0,0,0,0,0,0,0,0,0,0,0,0,0,0,0,0,0,0,0,0,0,0,0,0,0,0,0,0,0,0,0,0,0,0,0,0,0,0,0,0,0,0,0,0,0,0,0,0,0,0,0,0,0,0,0,0,638,639,640,641,642,0,0,0,0,0,0,0,0,0,0,0,0,0,0,0,0,0,0,0,1697,
1697,0,0,0,0,0,0,0,0,0,0,0,0,0,0,638,639,640,641,642,0,0,0,0,0,0,0,0,0,0,0,0,0,0,0,0,0,0,0,0,0,0,0,0,0,0,0,0,0,0,0,0,0,0,0,0,0,0,0,0,0,0,0,0,0,0,0,0,0,0,0,0,0,0,0,0,0,0,0,0,0,0,0,0,0,0,0,0,0,0,0,0,0,0,0,0,0,0,0,0,0,0,0,0,0,0,0,0,0,0,0,0,0,0,0,0,0,0,0,0,0,0,0,0,0,0,0,0,0,0,0,0,0,0,0,0,0,0,0,0,0,0,0,0,0,0,0,0,0,0,0,0,0,0,0,0,0,0,0,0,0,0,0,0,0,0,0,0,0,0,0,0,0,0,0,0,0,0,0,0,0,0,0,0,0,0,0,0,0,0,0,0,0,0,0,0,0,0,0,1697,
1697,0,0,0,0,0,0,0,0,0,0,0,0,0,0,0,0,0,0,0,0,0,0,0,0,0,0,0,0,0,0,0,0,0,0,0,0,0,0,0,0,0,0,0,0,0,0,0,0,0,0,0,0,0,0,0,0,0,0,0,0,0,0,0,0,0,0,0,0,0,0,0,0,0,0,0,0,0,0,0,0,0,0,0,0,0,0,0,0,0,0,0,0,0,0,0,0,0,0,0,0,0,0,0,0,0,0,0,0,0,0,0,0,0,0,0,0,0,0,0,0,0,0,0,0,0,0,0,0,0,0,0,0,0,0,0,0,0,0,0,0,0,0,0,0,0,0,0,0,0,0,0,0,0,0,0,0,0,0,0,0,0,0,0,0,0,0,0,0,0,0,0,0,0,0,0,0,0,0,0,0,0,0,0,0,0,0,0,0,0,0,0,0,0,0,0,0,0,0,1697,
1697,0,0,0,0,0,0,0,0,0,0,0,0,0,0,0,0,0,0,0,0,0,0,0,0,0,0,0,0,0,0,0,0,0,0,0,0,0,0,0,0,0,0,0,0,0,0,0,0,0,0,0,0,0,0,0,0,0,0,0,0,0,0,0,0,0,0,0,0,0,0,0,0,0,0,0,0,0,0,0,0,0,0,0,0,0,0,0,0,0,0,0,0,0,0,0,0,0,0,0,0,0,0,0,0,0,0,0,0,0,0,0,0,0,0,0,0,0,0,0,0,0,0,0,0,0,0,0,0,0,0,0,0,0,0,0,0,0,0,0,0,0,0,0,0,0,0,0,0,0,0,0,0,0,0,0,0,0,0,0,0,0,0,0,0,0,0,0,0,0,0,0,0,0,0,0,0,0,0,0,0,0,0,0,0,0,0,0,0,0,0,0,0,0,0,0,0,0,0,1697,
1697,0,0,0,0,0,0,0,0,0,0,0,0,0,0,0,0,0,0,0,0,0,0,0,0,0,0,0,0,0,0,0,0,0,0,0,0,0,0,0,0,0,0,0,0,0,0,0,0,0,0,0,0,0,0,0,0,0,0,0,0,0,0,0,0,0,0,0,0,0,0,0,0,0,0,0,0,0,0,0,0,0,0,0,0,0,0,0,0,0,0,0,0,0,0,0,0,0,0,0,0,0,0,0,0,0,0,0,0,0,0,0,0,0,0,0,0,0,0,0,0,0,0,0,0,0,0,0,0,0,0,0,0,0,0,0,0,0,0,0,0,0,0,0,0,0,0,0,0,0,0,0,0,0,0,0,0,0,0,0,0,0,0,0,0,0,0,0,0,0,0,0,0,0,0,0,0,0,0,0,0,0,0,0,0,0,0,0,0,0,0,0,0,0,0,0,0,0,0,1697,
1697,0,0,0,0,0,0,0,0,0,0,0,0,0,0,0,0,0,0,0,581,582,583,584,585,0,0,0,0,0,0,0,0,0,0,0,0,0,0,0,0,0,0,0,0,0,0,0,0,0,0,0,0,0,0,0,0,0,0,0,0,0,0,0,0,0,0,0,0,0,0,0,0,0,0,0,0,0,0,0,0,0,0,0,0,0,0,0,0,0,0,0,0,0,0,0,0,0,0,0,0,0,0,0,0,0,0,0,0,0,0,0,0,0,0,0,0,0,0,0,0,0,0,0,0,0,0,0,0,0,0,0,0,0,0,0,0,0,0,0,0,0,0,0,0,0,0,0,0,0,0,0,0,0,0,0,0,0,0,0,0,0,0,0,0,0,0,0,0,0,0,0,0,0,0,0,0,0,0,0,0,0,0,0,0,0,0,0,0,0,0,0,0,0,0,0,0,0,0,1697,
1697,0,0,0,0,0,0,0,0,0,0,0,0,0,0,0,0,0,0,0,638,639,640,641,642,0,0,0,0,0,0,0,0,0,0,0,0,0,0,0,0,0,0,0,0,0,0,0,0,0,0,0,0,0,0,0,0,0,0,0,0,0,0,0,0,0,0,0,0,0,0,0,0,0,0,0,0,0,0,0,0,0,0,0,0,0,0,0,0,0,0,0,0,0,0,0,0,0,0,0,0,0,0,0,0,0,0,0,0,0,0,0,0,0,0,0,0,0,0,0,0,0,0,0,0,0,0,0,0,0,0,0,0,0,0,0,0,0,0,0,0,0,0,0,0,0,0,0,0,0,0,0,0,0,0,0,0,0,0,0,0,0,0,0,0,0,0,0,0,0,0,0,0,0,0,0,0,0,0,0,0,0,0,0,0,0,0,0,0,0,0,0,0,0,0,0,0,0,0,1697,
1697,0,0,0,0,0,0,0,0,0,0,0,0,0,0,0,0,0,0,0,0,0,0,0,0,0,0,0,0,0,0,0,0,0,0,0,0,0,0,0,0,0,0,0,0,0,0,0,0,0,0,0,0,0,0,0,0,0,0,0,0,0,0,0,0,0,0,0,0,0,0,0,0,0,0,0,0,0,0,0,0,0,0,0,0,0,0,0,0,0,0,0,0,0,0,0,0,0,0,0,0,0,0,0,0,0,0,0,0,0,0,0,0,0,0,0,0,0,0,0,0,0,0,0,0,0,0,0,0,0,0,0,0,0,0,0,0,0,0,0,0,0,0,0,0,0,0,0,0,0,0,0,0,0,0,0,0,0,0,0,0,0,0,0,0,0,0,0,0,0,0,0,0,0,0,0,0,0,0,0,0,0,0,0,0,0,0,0,0,0,0,0,0,0,0,0,0,0,0,1697,
1697,0,0,0,0,0,0,0,0,0,0,0,0,0,0,0,0,0,0,0,0,0,0,0,0,0,0,0,0,0,0,0,0,0,0,0,0,0,0,0,0,0,0,0,0,0,0,0,0,0,0,0,0,0,0,0,0,0,0,0,0,0,0,0,0,0,0,0,0,0,0,0,0,0,0,0,0,0,0,0,0,0,0,0,0,0,0,0,0,0,0,0,0,0,0,0,0,0,0,0,0,0,0,0,0,0,0,0,0,0,0,0,0,0,0,0,0,0,0,0,0,0,0,0,0,0,0,0,0,0,0,0,0,0,0,0,0,0,0,0,0,0,0,0,0,0,0,0,0,0,0,0,0,0,0,0,0,0,0,0,0,0,0,0,0,0,0,0,0,0,0,0,0,0,0,0,0,0,0,0,0,0,0,0,0,0,0,0,0,0,0,0,0,0,0,0,0,0,0,1697,
1697,0,0,0,0,0,0,0,810,811,812,810,811,812,0,0,0,0,0,0,0,0,0,0,0,0,0,0,0,0,0,0,0,0,0,0,0,0,0,0,0,0,0,0,0,0,0,0,0,0,0,0,0,0,0,0,0,0,0,0,0,0,0,0,0,0,0,0,0,0,0,0,0,0,0,0,0,0,0,0,0,0,0,0,0,0,0,0,0,0,0,0,0,0,0,0,0,0,0,0,0,0,0,0,0,0,0,0,0,0,0,0,0,0,0,0,0,0,0,0,0,0,0,0,0,0,0,0,0,0,0,0,0,0,0,0,0,0,0,0,0,0,0,0,0,0,0,0,0,0,0,0,0,0,0,0,0,0,0,0,0,0,0,0,0,0,0,0,0,0,0,0,0,0,0,0,0,0,0,0,0,0,0,0,0,0,0,0,0,0,0,0,0,0,0,0,0,0,0,1697,
1697,0,0,0,0,0,0,0,867,868,869,867,868,869,0,0,0,0,0,0,0,0,0,0,0,0,0,0,0,1280,1281,1281,1282,1283,1284,1282,1283,1282,1283,1282,1283,1284,1282,1283,1284,1282,1283,1282,1283,1282,1283,1284,1285,0,0,0,0,0,0,0,0,0,0,0,0,0,0,0,0,0,0,0,0,0,0,0,0,0,0,0,0,0,0,0,0,0,0,0,0,0,0,0,0,0,0,0,0,0,0,0,0,0,0,0,0,0,0,0,0,0,0,0,0,0,0,0,0,0,0,0,0,0,0,0,0,0,0,0,0,0,0,0,0,0,0,0,0,0,0,0,0,0,0,0,0,0,0,0,0,0,0,0,0,0,0,0,0,0,0,0,0,0,0,0,0,0,0,0,0,0,0,0,0,0,0,0,0,0,0,0,0,0,0,0,0,0,0,0,0,0,0,0,0,0,0,0,0,0,0,1697,
1697,0,0,0,0,0,0,0,924,925,926,924,925,926,0,0,0,0,0,0,0,0,0,813,0,0,0,0,0,1337,1338,1338,1339,1340,1341,1339,1340,1339,1340,1339,1340,1341,1339,1340,1341,1339,1340,1339,1340,1339,1340,1341,1342,0,0,0,0,0,0,0,0,0,0,0,0,0,0,0,0,0,0,0,0,0,0,0,0,0,0,0,0,0,0,0,0,0,0,0,0,0,0,0,0,0,0,0,0,0,0,0,0,0,0,0,0,0,0,0,0,0,0,0,0,0,0,0,0,0,0,0,0,0,0,0,0,0,0,0,0,0,0,0,0,0,0,0,0,0,0,0,0,0,0,0,0,0,0,0,0,0,0,0,0,0,0,0,0,0,0,0,0,0,0,0,0,0,0,0,0,0,0,0,0,0,0,0,0,0,0,0,0,0,0,0,0,0,0,0,0,0,0,0,0,0,0,0,0,0,0,1697,
1697,0,0,0,0,0,0,0,0,0,0,0,0,0,0,0,0,0,0,0,0,0,0,870,0,0,0,0,0,0,0,0,0,0,0,0,0,0,0,0,0,0,0,0,0,0,0,0,0,0,0,0,0,0,0,0,0,0,0,0,0,0,0,0,0,0,0,0,0,0,0,0,0,0,0,0,0,0,0,0,0,0,0,0,0,0,0,0,0,0,0,0,0,0,0,0,0,0,0,0,0,0,0,0,0,0,0,0,0,0,0,0,0,0,0,0,0,0,0,0,0,0,0,0,0,0,0,0,0,0,0,0,0,0,0,0,0,0,0,0,0,0,0,0,0,0,0,0,0,0,0,0,0,0,0,0,0,0,0,0,0,0,0,0,0,0,0,0,0,0,0,0,0,0,0,0,0,0,0,0,0,0,0,0,0,0,0,0,0,0,0,0,0,0,0,0,0,0,0,1697,
1697,0,0,0,0,0,0,0,0,0,0,0,0,0,0,0,0,0,0,0,0,0,0,0,0,0,0,0,0,0,0,0,0,0,0,0,0,0,0,0,0,0,0,0,0,0,0,0,0,0,0,0,0,0,0,0,0,0,0,0,0,0,0,0,0,0,0,0,0,0,0,0,0,0,0,0,0,0,0,0,0,0,0,0,0,0,0,0,0,0,0,0,0,0,0,0,0,0,0,0,0,0,0,0,0,0,0,0,0,0,0,0,0,0,0,0,0,0,0,0,0,0,0,0,0,0,0,0,0,0,0,0,0,0,0,0,0,0,0,0,0,0,0,0,0,0,0,0,0,0,0,0,0,0,0,0,0,0,0,0,0,0,0,0,0,0,0,0,0,0,0,0,0,0,0,0,0,0,0,0,0,0,0,0,0,0,0,0,0,0,0,0,0,0,0,0,0,0,0,1697,
1697,0,0,0,0,0,0,0,0,0,0,0,0,924,925,0,0,0,0,0,0,0,0,0,0,0,0,0,0,0,0,0,0,0,0,0,0,0,0,0,0,0,0,0,0,0,0,0,0,0,0,0,0,0,0,0,0,0,0,0,0,0,0,0,0,0,0,0,0,0,0,0,0,0,0,0,0,0,0,0,0,0,0,0,0,0,0,0,0,0,0,0,0,0,0,0,0,0,0,0,0,0,0,0,0,0,0,0,0,0,0,0,0,0,0,0,0,0,0,0,0,0,0,0,0,0,0,0,0,0,0,0,0,0,0,0,0,0,0,0,0,0,0,0,0,0,0,0,0,0,0,0,0,0,0,0,0,0,0,0,0,0,0,0,0,0,0,0,0,0,0,0,0,0,0,0,0,0,0,0,0,0,0,0,0,0,0,0,0,0,0,0,0,0,0,0,0,0,0,1697,
1697,0,0,0,0,0,0,0,0,0,0,0,0,0,0,0,0,0,0,0,0,0,0,0,0,0,0,0,0,0,0,0,0,0,0,0,0,0,0,0,0,0,0,0,0,0,0,0,0,0,0,0,0,0,0,0,0,0,0,0,0,0,0,0,0,0,0,0,0,0,0,0,0,0,0,0,0,0,0,0,0,0,0,0,0,0,0,0,0,0,0,0,0,0,0,0,0,0,0,0,0,0,0,0,0,0,0,0,0,0,0,0,0,0,0,0,0,0,0,0,0,0,0,0,0,0,0,0,0,0,0,0,0,0,0,0,0,0,0,0,0,0,0,0,0,0,0,0,0,0,0,0,0,0,0,0,0,0,0,0,0,0,0,0,0,0,0,0,0,0,0,0,0,0,0,0,0,0,0,0,0,0,0,0,0,0,0,0,0,0,0,0,0,0,0,0,0,0,0,1697,
1697,0,0,0,0,0,0,0,0,0,0,0,0,0,0,0,924,925,926,0,0,0,813,0,0,0,0,0,0,0,0,0,0,0,0,0,0,0,0,0,0,0,0,0,0,0,0,0,0,0,0,0,0,0,0,0,0,0,0,0,0,0,0,0,0,0,0,0,0,0,0,0,0,0,0,0,0,0,0,0,0,0,0,0,0,0,0,0,0,0,0,0,0,0,0,0,0,0,0,0,0,0,0,0,0,0,0,0,0,0,0,0,0,0,0,0,0,0,0,0,0,0,0,0,0,0,0,0,0,0,0,0,0,0,0,0,0,0,0,0,0,0,0,0,0,0,0,0,0,9,6,0,0,9,6,0,0,0,0,0,0,0,0,0,0,0,0,0,0,0,0,0,0,0,0,0,0,0,0,0,0,0,0,0,0,0,0,0,0,0,0,0,0,0,0,0,0,0,0,1697,
1697,0,0,0,0,0,0,0,0,0,0,0,0,0,0,0,0,0,0,0,0,0,870,0,0,0,0,0,874,875,0,0,0,0,0,0,0,0,0,0,0,0,0,0,0,0,0,0,0,872,873,0,0,0,0,0,0,0,0,0,0,0,0,0,0,0,0,0,0,0,0,0,0,0,0,0,0,0,0,0,0,0,0,0,0,0,0,0,0,0,0,0,0,0,0,0,0,0,0,0,0,0,0,0,0,0,0,0,0,0,0,325,326,327,0,0,330,331,0,0,0,0,0,0,0,0,0,0,0,0,0,0,0,0,0,0,0,0,0,0,0,0,0,0,0,0,0,0,0,0,0,0,0,0,0,0,0,0,0,0,0,0,0,0,0,0,0,0,0,0,0,0,0,0,0,0,0,0,0,0,0,0,0,0,0,0,0,0,0,0,0,0,0,0,0,0,0,0,0,1697,
1697,0,0,0,0,0,0,768,769,770,771,772,0,0,0,0,0,0,0,0,0,0,0,0,0,286,287,288,931,932,288,289,287,288,289,287,288,289,287,288,287,288,287,288,289,288,289,287,288,929,930,288,287,288,289,287,290,0,0,0,0,0,0,0,0,0,0,0,0,0,0,0,0,0,0,0,0,0,0,0,0,0,0,0,0,0,0,0,0,0,0,0,0,0,0,0,0,0,0,0,0,0,0,0,0,0,0,0,0,0,0,382,0,0,0,0,0,0,0,0,0,0,0,0,0,0,0,0,0,0,0,0,0,0,0,0,0,0,0,0,0,0,0,0,0,0,0,0,0,0,0,0,0,0,0,0,0,0,0,0,0,0,0,0,0,0,0,0,0,0,0,0,0,0,0,0,0,0,0,0,0,0,0,0,0,0,0,0,0,0,0,0,0,0,0,0,0,0,0,1697,
1697,0,0,0,0,0,0,0,0,0,0,0,0,0,0,0,0,0,0,0,0,0,0,0,0,343,344,345,346,344,345,346,344,345,346,344,345,346,344,345,344,345,344,345,346,345,346,344,345,346,344,345,344,345,346,344,347,0,0,0,0,0,0,0,0,0,0,0,0,0,0,0,0,0,0,0,0,0,0,0,0,0,0,0,0,0,0,0,0,0,0,0,0,0,0,0,0,0,0,0,0,0,0,0,0,0,0,0,0,0,0,0,0,0,0,0,0,0,0,0,0,0,0,0,0,0,0,0,0,0,0,0,0,0,0,0,0,0,0,0,0,0,0,0,0,0,0,0,0,0,0,0,0,0,0,0,0,0,0,0,0,0,0,0,0,0,0,0,0,0,0,0,0,0,0,0,0,0,0,0,0,0,0,0,0,0,0,0,0,0,0,0,0,0,0,0,0,0,0,1697,
1697,0,0,0,0,0,0,0,0,0,0,0,0,0,0,0,0,0,0,0,0,0,0,0,0,400,401,402,403,401,402,403,401,402,403,401,402,403,401,402,403,401,402,403,401,402,403,401,402,403,401,402,403,401,402,401,404,0,0,0,0,0,0,0,0,0,0,0,0,0,0,0,0,0,0,0,0,0,0,0,0,0,0,0,0,0,0,0,0,0,0,0,0,0,0,0,0,0,0,0,0,0,0,0,0,0,0,0,0,0,0,0,0,0,0,0,0,0,0,0,0,0,0,0,0,0,0,0,0,0,0,0,0,0,0,0,0,0,0,0,0,0,0,0,0,0,0,0,0,0,0,0,0,0,0,0,0,0,0,0,0,0,0,0,0,0,0,0,0,0,0,0,0,0,0,0,0,0,0,0,0,0,0,0,0,0,0,0,0,0,0,0,0,0,0,0,0,0,0,1697,
1697,0,0,0,0,0,0,0,0,0,0,0,0,0,0,0,0,0,0,0,0,0,0,0,0,457,401,402,403,401,402,403,401,402,403,401,402,403,401,402,403,401,402,403,401,402,403,401,402,403,401,402,403,401,402,401,404,0,0,0,0,0,0,0,0,0,0,0,0,0,0,0,0,0,0,0,0,0,0,0,0,0,0,0,0,0,0,0,0,0,0,0,0,0,0,0,0,0,0,0,0,0,0,0,0,0,0,0,0,0,0,0,0,0,0,0,0,0,0,0,0,0,0,0,0,0,0,0,0,0,0,0,0,0,0,0,0,0,0,0,0,0,0,0,0,0,0,0,0,0,0,0,0,0,0,0,0,0,0,0,0,0,0,0,0,0,0,0,0,0,0,0,0,0,0,0,0,0,0,0,0,0,0,0,0,0,0,0,0,0,0,0,0,0,0,0,0,0,0,1697,
1697,0,0,0,0,0,0,0,0,0,0,0,0,0,0,0,0,0,0,0,0,0,0,0,0,400,401,402,403,401,402,403,401,402,403,401,402,403,401,402,403,401,402,403,401,402,403,401,402,403,401,402,403,401,402,401,404,0,0,0,0,0,0,0,0,0,0,0,0,0,0,0,0,0,0,0,0,0,0,0,0,0,0,0,0,0,0,0,0,0,0,0,0,0,0,0,0,0,0,0,0,0,0,0,0,0,0,0,0,0,0,0,0,0,0,0,0,0,0,0,0,0,0,0,0,0,0,0,0,0,0,0,0,0,0,0,0,0,0,0,0,0,0,0,0,0,0,0,0,0,0,0,0,0,0,0,0,0,0,0,0,0,0,0,0,0,0,0,0,0,0,0,0,0,0,0,0,0,0,0,0,0,0,0,0,0,0,0,0,0,0,0,0,0,0,0,0,0,0,1697,
1697,0,0,0,0,0,0,0,0,0,0,0,0,0,0,0,0,0,0,0,0,0,0,0,0,457,401,402,403,401,402,403,401,402,403,401,402,403,401,402,403,401,402,403,401,402,403,401,402,403,401,402,403,401,402,401,404,0,0,0,581,582,583,584,585,586,0,0,0,0,0,0,0,0,0,0,0,0,0,0,0,0,0,0,0,0,0,0,0,0,0,0,0,0,0,0,0,0,0,0,0,0,0,0,0,0,0,1624,1628,0,0,746,747,805,805,805,805,805,805,805,805,805,805,805,805,805,805,805,805,805,805,805,805,805,805,805,805,805,805,805,805,805,805,805,805,805,805,750,751,0,0,0,0,0,0,0,0,0,0,0,0,0,0,0,0,0,0,0,0,0,0,0,0,0,0,0,0,0,0,0,0,0,0,0,0,0,0,0,0,0,0,0,0,0,0,0,0,0,0,1697,
1697,0,0,0,0,0,0,0,0,0,0,0,0,0,0,0,0,0,0,0,0,0,0,0,0,400,401,402,403,401,402,403,401,402,403,401,402,403,401,402,403,401,402,403,401,402,403,401,402,403,401,402,403,401,402,401,404,0,0,0,638,639,640,641,642,643,0,0,0,0,0,0,0,0,0,0,0,0,0,0,0,0,0,0,0,0,0,0,0,0,0,0,0,0,0,0,0,0,0,0,0,0,0,0,0,0,0,1681,1685,0,0,803,804,805,805,805,805,805,805,805,805,805,805,805,805,805,805,805,805,805,805,805,805,805,805,805,805,805,805,805,805,805,805,805,805,805,805,807,808,0,0,0,0,0,0,0,0,0,0,0,0,0,0,0,0,0,0,0,0,0,0,0,0,0,0,0,0,0,0,0,0,0,0,0,0,0,0,0,0,0,0,0,0,0,0,0,0,0,0,1697,
1697,0,0,0,0,0,0,0,0,0,0,0,0,0,0,0,0,0,0,0,0,0,0,0,0,457,401,402,403,401,402,403,401,402,403,401,402,403,401,402,403,401,402,403,401,402,403,401,402,403,401,402,403,401,402,401,404,0,0,0,0,0,0,0,0,0,0,0,0,0,0,0,0,0,0,0,0,0,0,0,0,0,0,0,0,0,0,0,0,0,0,0,0,0,0,0,0,0,0,0,0,0,0,0,0,0,0,1738,1742,0,0,746,747,805,805,805,805,805,805,805,805,805,805,805,805,805,805,805,805,805,805,805,805,805,805,805,805,805,805,805,805,805,805,805,805,805,805,750,751,0,0,0,0,0,0,0,0,0,0,0,0,0,0,0,0,0,0,0,0,0,0,0,0,0,0,0,0,0,0,0,0,0,0,0,0,0,0,0,0,0,0,0,0,0,0,0,0,0,0,1697,
1697,0,0,0,0,0,0,0,0,0,0,0,0,0,0,0,0,0,0,0,0,0,0,0,0,400,401,402,403,401,402,403,401,402,403,401,402,403,401,402,403,401,402,403,401,402,403,401,402,403,401,402,403,401,402,401,404,0,0,0,0,0,0,0,0,0,0,0,0,0,0,0,0,0,0,0,0,0,0,0,0,0,0,0,0,0,0,0,0,0,0,0,0,0,0,0,0,0,0,0,0,0,0,0,0,0,0,1681,1685,0,0,746,747,805,805,805,805,805,805,805,805,805,805,805,805,805,805,805,805,805,805,805,805,805,805,805,805,805,805,805,805,805,805,805,805,805,805,807,808,0,0,0,0,0,0,0,0,0,0,0,0,0,0,0,0,0,0,0,0,0,0,0,0,0,0,0,0,0,0,0,0,0,0,0,0,0,0,0,0,0,0,0,0,0,0,0,0,0,0,1697,
1697,0,0,0,0,0,0,0,0,0,0,0,0,0,0,0,0,0,0,0,0,0,0,0,0,457,401,401,402,401,402,403,401,402,403,401,402,403,401,402,403,401,402,403,401,402,403,401,402,403,401,402,403,401,402,401,461,0,0,0,0,0,0,0,0,0,0,0,0,0,0,0,0,0,0,0,0,0,0,0,0,0,0,0,0,0,0,0,0,0,0,0,0,689,690,689,690,689,690,689,690,689,690,689,690,689,690,1738,1742,689,0,746,747,805,805,805,805,805,805,805,805,805,805,805,805,805,805,805,805,805,805,805,805,805,805,805,805,805,805,805,805,805,805,805,805,805,805,750,751,0,0,0,0,0,0,0,0,0,0,0,0,0,0,0,0,0,0,0,0,0,0,0,0,0,0,0,0,0,0,0,0,0,0,0,0,0,0,0,0,0,0,0,0,0,0,0,0,0,0,1697,
1697,0,0,0,0,0,0,0,0,0,0,0,0,0,0,0,0,0,0,0,0,0,0,0,0,457,458,458,459,458,459,460,458,459,460,458,459,460,458,459,460,458,459,460,458,459,460,458,459,460,458,459,460,458,459,458,461,0,0,0,0,0,0,0,0,0,689,0,0,0,0,690,689,0,0,690,689,690,689,690,689,690,689,690,689,690,689,690,689,690,689,690,689,689,690,689,690,689,690,689,690,689,690,689,690,689,690,1795,1685,689,0,746,747,805,805,805,805,805,805,805,805,805,805,805,805,805,805,805,805,805,805,805,805,805,805,805,805,805,805,805,805,805,805,805,805,805,805,807,808,0,0,0,0,0,0,0,0,0,0,0,0,0,0,0,0,0,0,0,0,0,0,0,0,0,0,0,0,0,0,0,0,0,0,0,0,0,0,0,0,0,0,0,0,0,0,0,0,0,0,1697,
1697,0,0,0,0,0,0,0,0,0,0,0,0,0,0,0,0,0,0,0,0,0,0,0,0,514,515,516,517,515,515,515,515,515,515,515,515,515,515,515,515,515,515,515,515,516,515,516,515,516,515,515,515,515,515,516,518,0,0,0,0,0,0,0,1,2,3,4,3,4,5,690,689,690,689,690,689,690,689,690,689,690,689,690,689,690,689,690,689,690,689,690,689,689,690,689,690,689,690,689,690,689,690,689,690,689,690,1681,1742,689,0,746,747,805,805,805,805,805,805,805,805,805,805,805,805,805,805,805,805,805,805,805,805,805,805,805,805,805,805,805,805,805,805,805,805,805,805,750,751,0,0,0,0,0,0,0,0,0,0,0,0,0,0,0,0,0,0,0,0,0,0,0,0,0,0,0,0,0,0,0,0,0,0,0,0,0,0,0,0,0,0,0,0,0,0,0,0,0,0,1697,
1697,0,0,0,0,0,0,0,0,0,0,0,0,0,0,0,0,0,0,0,0,0,0,0,0,0,0,0,0,0,0,0,0,0,0,0,0,0,0,0,0,0,0,0,0,0,0,0,0,0,0,0,0,0,0,0,0,0,0,0,0,0,0,690,58,59,60,61,60,61,62,690,689,690,689,690,689,690,689,690,689,690,689,690,689,690,689,690,689,690,689,689,689,689,690,689,690,689,690,689,690,689,690,689,690,689,690,1738,1685,689,0,746,747,805,805,805,805,805,805,805,805,805,805,805,805,805,805,805,805,805,805,805,805,805,805,805,805,805,805,805,805,805,805,805,805,805,805,750,751,0,0,0,0,0,0,0,0,0,0,0,0,0,0,0,0,0,0,0,0,0,0,0,0,0,0,0,0,0,0,0,0,0,0,0,0,0,0,0,0,0,0,0,0,0,0,0,0,0,0,1697,
1697,0,0,0,0,0,0,0,0,0,0,0,0,0,0,0,0,0,0,0,0,0,0,0,0,0,0,0,0,0,0,0,0,0,0,0,0,0,0,0,0,0,0,0,0,0,0,0,0,0,0,0,0,0,0,0,0,0,0,0,0,0,0,690,115,116,117,118,117,118,119,2,3,4,5,690,689,690,689,690,689,690,689,690,689,690,689,690,689,690,689,690,689,689,690,689,690,689,690,689,690,689,690,689,690,689,690,1795,1742,689,0,746,747,805,805,805,805,805,805,805,805,805,805,805,805,805,805,805,805,805,805,805,805,805,805,805,805,805,805,805,805,805,805,805,805,805,805,807,808,0,0,0,0,0,0,0,0,0,0,0,0,0,0,0,0,0,0,0,0,0,0,0,0,0,0,0,0,0,0,0,0,0,0,0,0,0,0,0,0,0,0,0,0,0,0,0,0,0,0,1697,
1697,0,0,0,0,0,0,0,0,0,0,0,0,0,0,0,0,0,0,0,0,0,0,0,0,0,0,0,0,0,0,0,0,0,0,0,0,0,0,0,0,0,0,0,0,0,0,0,0,0,0,0,0,0,0,0,0,0,0,0,0,0,0,690,115,116,117,116,117,118,176,59,60,61,62,690,689,690,689,690,689,690,689,690,689,690,689,690,689,690,689,690,689,689,690,689,690,689,690,689,690,689,690,689,690,689,690,1795,1799,689,0,746,747,805,805,805,805,805,805,805,805,805,805,805,805,805,805,805,805,805,805,805,805,805,805,805,805,805,805,805,805,805,805,805,805,805,805,750,751,0,0,0,0,0,0,0,0,0,0,0,0,0,0,0,0,0,0,0,0,0,0,0,0,0,0,0,0,0,0,0,581,582,583,584,585,0,0,0,0,0,0,0,0,0,0,0,0,0,0,1697,
1697,0,0,0,0,0,0,0,0,0,0,0,0,0,0,0,0,0,0,0,0,0,0,0,0,0,0,0,0,0,0,0,0,0,0,0,0,0,0,0,0,0,0,0,0,0,0,0,0,0,0,0,0,0,0,0,0,0,0,0,0,0,689,690,172,116,117,173,174,175,119,116,117,118,119,690,689,690,689,690,689,690,689,690,689,690,689,690,689,690,689,690,689,689,690,689,690,689,690,689,690,689,690,689,690,689,690,1852,1856,689,0,746,747,805,805,805,805,805,805,805,805,805,805,805,805,805,805,805,805,805,805,805,805,805,805,805,805,805,805,805,805,805,805,805,805,805,805,750,751,0,0,0,0,0,0,0,0,0,0,0,0,0,0,0,0,0,0,0,0,0,0,0,0,0,0,0,0,0,0,0,638,639,640,641,642,0,0,0,0,0,0,0,0,0,0,0,0,0,0,1697,
1697,0,0,0,0,0,0,0,0,0,0,0,0,0,0,0,0,0,0,0,0,0,0,0,0,0,0,0,0,0,0,0,0,0,0,0,0,0,0,0,0,0,0,0,0,0,0,0,0,0,0,0,0,0,0,0,0,0,0,0,0,0,689,690,172,173,174,173,174,175,176,173,174,175,176,690,689,690,689,690,689,690,689,690,689,690,689,690,689,690,689,690,689,689,690,689,690,689,690,689,690,689,690,689,690,689,690,689,690,689,0,803,804,805,805,805,805,805,805,805,805,805,805,805,805,805,805,805,805,805,805,805,805,805,805,805,805,805,805,805,805,805,805,805,805,805,805,807,808,0,0,0,0,0,0,0,0,0,0,0,0,0,0,0,0,0,0,0,0,0,0,0,0,0,0,0,0,0,0,0,0,0,0,0,0,0,0,0,0,0,0,0,0,0,0,0,0,0,0,1697,
1697,0,0,0,0,0,0,0,0,0,0,0,0,0,0,0,0,0,0,0,0,0,0,0,0,0,0,0,0,0,0,0,0,0,0,0,0,0,0,0,0,0,0,0,0,0,0,0,0,0,0,0,0,0,0,0,0,0,0,0,0,0,1,2,229,231,232,230,231,232,233,230,231,232,233,2,3,4,2,3,4,2,3,4,2,3,4,2,3,4,2,3,4,2,3,4,2,3,4,2,3,4,2,3,4,2,3,4,2,3,4,2,2,3,4,5,0,0,0,0,0,0,0,0,0,0,0,0,0,0,0,0,0,0,0,0,0,0,0,0,0,0,0,0,0,0,0,0,0,0,0,0,0,0,0,0,0,0,0,0,0,0,0,0,0,0,0,0,0,0,0,0,0,0,0,0,0,0,0,0,0,0,0,0,0,0,0,0,0,0,0,0,0,0,0,0,0,0,0,1697,
1697,0,0,0,0,0,0,0,0,0,0,0,0,0,0,0,0,0,0,0,0,0,0,0,0,0,0,0,0,0,0,0,0,0,0,0,0,0,0,0,0,0,0,0,0,0,0,0,0,0,0,0,0,0,0,0,0,0,0,0,0,0,58,59,60,61,59,60,61,59,60,61,59,60,61,59,60,61,59,60,61,59,60,61,59,60,61,59,60,61,59,60,61,59,60,61,59,60,61,59,60,61,59,60,61,59,60,61,59,60,61,59,59,60,61,62,0,0,0,0,0,0,0,0,0,0,0,0,0,0,0,0,0,0,0,0,0,0,0,0,0,0,0,0,0,0,0,0,0,0,0,0,0,0,0,0,0,0,0,0,0,0,0,291,292,293,291,292,293,291,292,293,0,0,0,0,0,0,0,0,0,0,0,0,0,0,0,0,0,0,0,0,0,0,0,0,0,0,0,1697,
1697,0,0,0,0,0,0,0,0,0,0,0,0,0,0,0,0,0,0,0,0,0,0,0,0,0,0,0,0,0,0,0,0,0,0,0,0,0,0,0,0,0,0,0,0,0,0,0,0,0,0,0,0,0,0,0,0,0,0,0,0,0,803,804,805,806,805,806,805,806,805,806,805,806,805,806,805,806,805,806,805,806,805,806,805,806,805,806,805,806,805,806,805,806,805,806,805,806,805,806,805,806,805,806,805,806,805,806,805,806,805,806,805,806,807,808,0,0,0,0,0,0,0,0,0,0,0,0,0,0,0,0,0,0,0,0,0,0,0,0,0,0,0,0,0,0,0,0,0,0,0,0,0,0,0,0,0,0,0,0,0,0,0,348,349,350,348,349,350,348,349,350,0,0,0,0,0,0,0,0,0,0,0,0,0,0,0,0,0,0,0,0,0,0,0,0,0,0,0,1697,
1697,0,0,0,0,0,0,0,0,0,0,0,0,0,0,0,0,0,0,0,0,0,0,0,0,0,0,0,0,0,0,0,0,0,0,0,0,0,0,0,0,0,0,0,0,0,0,0,0,0,0,0,0,0,0,0,0,0,0,0,0,0,803,804,748,749,748,749,748,749,748,749,748,749,748,749,748,749,748,749,748,749,748,749,748,749,748,749,748,749,748,749,748,749,748,749,748,749,748,749,748,749,748,749,748,749,748,749,748,749,748,749,748,749,807,808,0,0,0,0,0,0,0,0,0,0,0,0,0,0,0,0,0,0,0,0,0,0,0,0,0,0,0,0,0,0,0,0,0,0,0,0,0,0,0,0,0,0,0,0,0,0,0,0,0,0,0,0,0,0,0,0,0,0,0,0,0,0,0,0,0,0,0,0,0,0,0,0,0,0,0,0,0,0,0,0,0,0,0,1697,
1697,0,0,0,0,0,0,0,0,0,0,0,0,0,0,0,0,0,0,0,0,0,0,0,0,0,0,0,0,0,0,0,0,0,0,0,0,0,0,0,0,0,0,0,0,0,0,0,0,0,0,0,0,0,0,0,0,0,0,0,0,0,746,747,748,749,748,748,748,748,748,748,748,748,748,748,748,748,748,748,748,748,748,748,748,748,748,748,748,748,748,748,748,748,748,748,748,748,748,748,748,748,748,748,748,748,748,748,748,748,748,748,748,749,750,751,0,0,0,0,0,0,0,0,0,0,0,0,0,0,0,0,0,0,0,0,0,0,0,0,0,0,0,0,0,0,0,0,0,0,0,0,0,0,0,0,0,0,0,0,0,0,0,0,0,0,0,0,0,0,0,0,0,0,0,0,0,0,0,0,0,0,0,0,0,0,0,0,0,0,0,0,0,0,0,0,0,0,0,1697,
1697,0,0,0,0,0,0,0,0,0,0,0,0,0,0,0,0,0,0,0,0,0,0,0,0,0,0,0,0,0,0,0,0,0,0,0,0,0,0,0,0,0,0,0,0,0,0,0,0,0,0,0,0,0,0,0,0,0,0,0,0,0,803,804,805,806,805,805,805,805,805,805,805,805,805,805,805,805,805,805,805,805,805,805,805,805,805,805,805,805,805,805,805,805,805,805,805,805,805,805,805,805,805,805,805,805,805,805,805,805,805,805,805,806,807,808,0,0,0,0,0,0,0,0,0,0,0,0,0,0,0,0,0,0,0,0,0,0,0,0,0,0,0,0,0,0,0,0,0,0,0,0,0,0,0,0,0,0,0,0,0,0,0,0,0,0,0,0,0,0,0,0,0,0,0,0,0,0,0,0,0,0,0,0,0,0,0,0,0,0,0,0,0,0,0,0,0,0,0,1697,
1697,0,0,0,0,0,0,0,0,0,0,0,0,0,0,0,0,0,0,0,0,0,0,0,0,0,0,0,0,0,0,0,0,0,0,0,0,0,0,0,0,0,0,0,0,0,0,0,0,0,0,0,0,0,0,0,0,0,0,0,0,0,746,747,748,749,748,748,748,748,748,748,748,748,748,748,748,748,748,748,748,748,748,748,748,748,748,748,748,748,748,748,748,748,748,748,748,748,748,748,748,748,748,748,748,748,748,748,748,748,748,749,748,749,750,751,0,0,0,0,0,0,0,0,0,0,0,0,0,0,0,0,0,0,0,0,581,582,583,584,585,0,0,0,0,0,0,0,0,0,0,0,0,0,0,0,0,0,0,0,0,0,0,0,0,0,0,0,0,0,0,0,0,0,0,0,0,0,0,0,0,0,0,0,0,0,0,0,0,0,0,0,0,0,0,0,0,0,0,1697,
1697,0,0,0,0,0,0,0,0,0,0,0,0,0,0,0,0,0,0,0,0,0,0,0,0,0,0,0,0,0,0,0,0,0,0,0,0,0,0,0,0,0,0,0,0,0,0,0,0,0,0,0,0,0,0,0,0,0,0,0,0,0,803,804,805,806,805,805,805,805,805,805,805,805,805,805,805,805,805,805,805,805,805,805,805,805,805,805,805,805,805,805,805,805,805,805,805,805,805,805,805,805,805,805,805,805,805,805,805,805,748,749,748,749,807,808,0,0,0,0,0,0,0,0,0,0,0,0,0,0,0,0,0,0,0,0,638,639,640,641,642,0,0,0,0,0,0,0,0,0,0,0,0,0,0,0,0,0,0,0,0,0,0,0,0,0,0,0,0,0,0,0,0,0,0,0,0,0,0,0,0,0,0,0,0,0,0,0,0,0,0,0,0,0,0,0,0,0,0,1697,
1697,0,0,0,0,0,0,0,0,0,0,0,0,0,0,0,0,0,0,0,0,0,0,0,0,0,0,0,0,0,0,0,0,0,0,0,0,0,0,0,0,0,0,0,0,0,0,0,0,0,0,0,0,0,0,0,0,0,0,0,0,0,746,747,748,749,748,749,749,749,749,749,749,749,749,749,749,749,749,749,749,749,749,749,749,749,749,749,749,749,749,749,749,749,749,749,749,749,749,749,749,749,749,749,749,749,749,749,749,749,749,749,748,749,750,751,0,0,0,0,0,0,0,0,0,0,0,0,0,0,0,0,0,0,0,0,0,0,0,0,0,0,0,0,0,0,0,0,0,0,0,0,0,0,0,0,0,0,0,0,0,0,0,0,0,0,0,0,0,0,0,0,0,0,0,0,0,0,0,0,0,0,0,0,0,0,0,0,0,0,0,0,0,0,0,0,0,0,0,1697,
1697,0,0,0,0,0,0,0,0,0,0,0,0,0,0,0,0,0,0,0,0,0,0,0,0,0,0,0,0,0,0,0,0,0,0,0,0,0,0,0,0,0,0,0,0,0,0,0,0,0,0,0,0,0,0,0,0,0,0,0,0,0,803,804,805,806,805,806,806,806,806,806,806,806,806,806,806,806,806,806,806,806,806,806,806,806,806,806,806,806,806,806,806,806,806,806,806,806,806,806,806,806,806,806,806,806,806,806,806,806,806,806,748,749,807,808,0,0,0,0,0,0,0,0,0,0,0,0,0,0,0,0,0,0,0,0,0,0,0,0,0,0,0,0,0,0,0,0,0,0,0,0,0,0,0,0,0,0,0,0,0,0,0,0,0,0,0,0,0,0,0,0,0,0,0,0,0,0,0,0,0,0,0,0,0,0,0,0,0,0,0,0,0,0,0,0,0,0,0,1697,
1697,0,0,0,0,0,0,0,0,0,0,0,0,0,0,0,0,0,0,0,0,0,0,0,0,0,0,0,0,0,0,0,0,0,0,0,0,0,0,0,0,0,0,0,0,0,0,0,0,0,0,0,0,0,0,0,0,0,0,0,0,0,746,747,748,749,805,806,748,749,749,749,749,749,749,749,749,749,749,749,749,749,749,749,749,749,749,749,749,749,749,749,749,749,749,749,749,749,749,749,749,749,749,749,749,749,749,749,749,749,749,749,749,749,750,751,0,0,0,0,0,0,0,0,0,0,0,0,0,0,0,0,0,0,0,0,0,0,0,0,0,0,0,0,0,0,0,0,0,0,0,0,0,0,0,0,0,0,0,0,0,0,0,0,0,0,0,0,0,0,0,0,0,0,0,0,0,0,0,0,0,0,0,0,0,0,0,0,0,0,0,0,0,0,0,0,0,0,0,1697,
1697,0,0,0,0,0,0,0,0,0,0,0,0,0,0,0,0,0,0,0,0,0,0,0,0,0,0,0,0,0,0,0,0,0,0,0,0,0,0,0,0,0,0,0,0,19,20,21,22,0,0,0,0,0,0,0,0,0,0,0,0,0,746,747,748,749,748,748,748,748,748,748,748,748,748,748,748,748,748,748,748,748,748,748,748,748,748,748,748,748,748,748,748,748,748,748,748,748,748,748,748,748,748,748,748,748,748,748,748,748,748,748,748,749,750,751,0,0,0,0,0,0,0,0,0,0,0,581,582,583,584,585,0,0,0,0,0,0,0,0,0,0,0,0,0,0,0,0,0,0,0,0,0,0,0,0,0,0,0,0,0,0,0,0,0,0,0,0,0,0,0,0,0,0,0,0,0,0,0,0,0,0,0,0,0,0,0,0,0,0,0,0,0,0,0,0,0,0,0,1697,
1697,0,0,0,0,0,0,0,0,0,0,0,0,0,0,0,0,0,0,0,0,0,0,0,0,0,0,0,0,0,0,0,0,0,0,0,0,0,0,0,0,0,0,0,0,75,77,78,79,81,0,0,0,0,0,0,0,0,0,0,0,0,689,690,689,690,689,690,689,690,689,690,689,690,689,690,689,690,689,690,689,690,689,690,689,690,689,690,689,690,689,690,689,690,689,690,689,690,689,690,689,690,689,690,689,690,689,690,689,690,689,690,689,690,689,690,689,0,0,0,0,0,0,0,0,0,0,638,639,640,641,642,0,0,0,0,0,0,0,0,0,0,0,0,0,0,0,0,0,0,0,0,0,0,0,0,0,0,0,0,0,0,0,0,0,0,0,0,0,0,0,0,0,0,0,0,0,0,0,0,0,0,0,0,0,0,0,0,0,0,0,0,0,0,0,0,0,0,0,1697,
1697,0,0,0,0,0,0,0,0,0,0,0,0,0,0,0,0,0,0,0,0,0,0,0,0,0,0,0,0,0,0,0,0,0,0,0,0,0,0,0,0,0,0,0,0,132,133,78,79,138,139,39,40,0,0,0,0,0,0,0,0,0,689,690,689,690,689,690,689,690,689,690,689,690,689,690,689,690,689,690,689,690,689,690,689,690,689,690,689,690,689,690,689,690,689,690,689,690,689,690,689,690,689,690,689,690,689,690,689,690,689,690,689,690,689,690,689,0,0,0,0,0,0,0,0,0,0,0,0,0,0,0,0,0,0,0,0,0,0,0,0,0,0,0,0,0,0,0,0,0,0,0,0,0,0,0,0,0,0,0,0,0,0,0,0,0,0,0,0,0,0,0,0,0,0,0,0,0,0,0,0,0,0,0,0,0,0,0,0,0,0,0,1624,1625,1626,1627,1628,1626,1627,1697,
1697,0,0,0,6,7,8,9,6,7,8,9,0,0,0,0,0,0,0,0,0,0,1103,1104,0,0,0,0,0,0,0,0,0,0,0,0,0,0,0,0,0,0,0,0,0,0,10,11,12,0,0,0,0,0,0,0,0,0,0,0,0,0,0,0,0,0,0,0,0,877,0,0,0,0,0,0,0,0,0,0,0,0,0,0,0,0,0,0,0,0,0,0,0,874,875,0,0,0,0,0,0,0,0,0,0,0,0,0,0,0,0,0,0,0,0,0,0,0,0,0,0,0,0,0,0,0,0,0,0,0,0,0,0,0,0,0,0,0,0,0,0,0,0,0,0,0,0,0,0,0,0,0,0,0,0,0,0,0,0,0,0,0,0,0,0,0,0,0,0,0,0,0,0,0,0,0,0,0,0,0,0,0,0,0,0,0,0,0,0,0,0,0,1681,1682,1682,1683,1683,1683,1683,1697,
1697,2,3,928,63,64,65,66,63,64,65,66,4,5,0,0,0,0,0,0,0,0,1160,1161,0,0,0,0,0,0,0,0,0,0,0,0,0,0,0,0,0,0,0,0,0,0,67,68,69,0,0,0,0,0,0,0,0,0,0,0,0,0,0,0,0,0,0,0,0,934,0,0,0,0,0,0,0,0,0,0,0,0,0,0,0,0,0,0,0,0,0,0,0,931,932,0,0,0,0,0,0,0,0,0,0,0,0,0,0,0,0,0,0,0,0,0,0,0,0,0,0,0,1033,1034,1035,1036,1035,1036,1036,1036,1036,1036,1036,1036,1036,1036,1036,1036,1036,1036,1036,1036,1036,1036,1036,1036,1036,1036,1036,1036,1036,1036,1036,1036,1036,1034,1035,1033,1034,1035,1036,1034,1035,1036,1033,1034,1035,1036,1034,1035,1036,1033,1034,1035,1036,1033,1034,1035,1036,1033,1034,1035,1036,0,0,0,0,0,0,0,0,0,1738,1683,1684,1683,1740,1683,1740,1697,
1697,59,60,61,120,121,122,123,120,121,122,123,61,62,0,0,0,0,0,0,0,0,1217,1218,0,0,0,0,0,0,0,0,0,0,0,0,0,0,0,0,0,0,0,0,0,0,124,125,126,141,85,85,86,87,142,143,85,86,86,85,85,748,748,748,748,748,748,748,748,748,748,748,748,748,748,748,748,748,748,748,748,748,748,748,748,748,748,748,748,748,748,748,748,748,748,748,748,748,748,748,748,748,748,748,748,748,748,748,748,748,748,748,748,748,748,748,748,748,748,748,748,748,1090,1091,1092,1093,1092,1093,1093,1093,1093,1093,1093,1093,1093,1093,1093,1093,1093,1093,1093,1093,1093,1093,1093,1093,1093,1093,1093,1093,1093,1093,1093,1093,1093,1091,1092,1090,1091,1092,1093,1091,1092,1093,1090,1091,1092,1093,1091,1092,1093,1090,1091,1092,1093,1090,1091,1092,1093,1090,1091,1092,1093,970,971,972,970,971,972,970,971,972,1795,1682,1682,1683,1684,1683,1740,1697,
1697,116,117,118,116,117,118,116,117,118,116,117,118,119,0,0,0,0,0,0,0,0,1215,1216,0,0,0,0,0,0,0,0,0,0,0,0,0,0,0,0,0,0,0,0,977,977,978,182,183,141,85,85,85,85,85,85,85,142,143,142,85,748,748,748,748,748,748,748,748,748,748,748,748,748,748,748,748,748,748,748,748,748,748,748,748,748,748,748,748,748,748,748,748,748,748,748,748,748,748,748,748,748,748,748,748,748,748,748,748,748,748,748,748,748,748,748,748,748,748,748,748,748,973,974,974,974,974,974,974,974,974,974,974,974,974,974,974,974,974,974,974,974,974,974,974,974,974,974,974,974,974,974,974,974,974,974,974,974,974,974,974,974,974,974,974,974,974,974,974,974,974,974,974,974,974,974,974,974,974,974,973,974,975,1027,1028,1029,1027,1028,1029,1027,1028,1029,1681,1682,1682,1683,1684,1683,1740,1697,
1697,116,117,118,116,117,118,116,117,118,116,117,118,176,1033,1034,1035,1036,1036,1033,1033,1034,1215,1216,1033,1033,1033,1034,1035,1033,1034,1035,1036,1033,1034,1035,1036,1033,1034,1035,1036,1033,1034,1035,1036,1035,1036,239,240,141,85,85,85,85,85,85,85,85,85,85,85,748,748,748,748,748,748,748,748,748,748,748,748,748,748,748,748,748,748,748,748,748,748,748,748,748,748,748,748,748,748,748,748,748,748,748,748,748,748,748,748,748,748,748,748,748,748,748,748,748,748,748,748,748,748,748,748,748,748,748,748,748,1030,1031,1031,1031,1031,1031,1031,1031,1031,1031,1031,1031,1031,1031,1031,1031,974,974,974,1031,1031,1031,1031,1031,1031,1031,1031,974,974,1031,1031,1031,1031,1031,1031,1031,1031,1031,1031,1031,1031,1031,1031,1031,1031,1031,1031,974,1031,1031,1031,1031,1031,1031,1031,1031,1031,1031,1030,1031,1032,1030,1031,1032,1030,1031,1032,1030,1031,1032,1681,1682,1682,1683,1684,1683,1740,1697,
1697,116,117,118,116,117,118,116,117,118,116,117,118,119,1090,1091,1092,1093,1093,1090,1090,1090,1090,1090,1090,1090,1090,1090,1090,1090,1091,1092,1093,1090,1091,1092,1090,1090,1090,1090,1090,1090,1090,1090,1090,1090,1091,864,865,141,85,85,85,85,85,85,85,85,85,85,85,748,748,748,748,748,748,748,748,748,748,748,748,748,748,748,748,748,748,748,748,748,748,748,748,748,748,748,748,748,748,748,748,748,748,748,748,748,748,748,748,748,748,748,748,748,748,748,748,748,748,748,748,748,748,748,748,748,748,748,748,748,1087,1088,1088,1088,1088,1088,1088,1088,1088,1088,1088,1088,1088,1088,1088,1088,974,1031,1031,1088,1088,1088,1088,1088,1088,1088,1088,1031,974,1088,1088,1088,1088,1088,1088,1088,1088,1088,1088,1088,1088,1088,1088,1088,1088,1088,1088,974,1088,1088,1088,1088,1088,1088,1088,1088,1088,1088,1087,1088,1089,1087,1088,1089,1087,1088,1089,1087,1088,1089,1681,1682,1682,1683,1684,1683,1740,1697,
1697,116,117,118,116,117,116,117,118,118,116,117,118,176,1147,1148,1149,1150,1150,1147,1147,1147,1147,1147,1147,1147,1147,1147,1147,1147,1148,1149,1150,1147,1148,1149,1150,1147,1148,1149,1150,1147,1148,1149,1150,1147,1148,921,922,141,85,85,85,85,85,85,85,85,85,85,85,748,748,748,748,748,748,748,748,748,748,748,748,748,748,748,748,748,748,748,748,748,748,748,748,748,748,748,748,748,748,748,748,748,748,748,748,748,748,748,748,748,748,748,748,748,748,748,748,748,748,748,748,748,748,748,748,748,748,748,748,748,1144,1145,1145,1145,1145,1145,1145,1145,1145,1145,1145,1145,1145,1145,1145,1145,974,1088,1088,1145,1145,1145,1145,1145,1145,1145,1145,1088,974,974,1145,1145,1145,974,974,974,974,974,974,974,974,974,974,974,974,974,974,974,1145,1145,1145,1145,1145,1145,1145,1145,1145,1145,973,974,975,973,974,975,973,974,975,973,974,975,1738,1682,1682,1683,1684,1683,1740,1697,
1697,116,117,118,116,117,116,116,117,118,116,117,118,119,1147,1147,1148,1149,1147,1148,1149,1147,1147,1148,1149,1150,1147,1148,1149,1147,1148,1149,1150,1147,1148,1149,1150,1147,1148,1149,1150,1147,1148,1149,1150,1147,1148,864,865,141,85,142,142,85,85,142,85,85,85,85,85,748,748,748,748,748,748,748,748,748,748,748,748,748,748,748,748,748,748,748,748,748,748,748,748,748,748,748,748,748,748,748,748,748,748,748,748,748,748,748,748,748,748,748,748,748,748,748,748,748,748,748,748,748,748,748,748,748,748,748,748,748,973,974,974,974,974,974,974,974,974,974,974,974,974,974,974,974,1031,1145,1145,1145,1031,1031,1031,1031,1031,1031,1031,1145,1031,1031,1031,1145,1145,1031,1031,1031,1031,1031,1031,1031,1031,1031,1031,1031,1031,1031,1031,974,974,974,974,974,974,974,974,974,974,974,1030,1031,1032,1030,1031,1032,1030,1031,1032,1030,1031,1032,1681,1682,1682,1683,1684,1683,1740,1697,
1697,173,174,175,173,174,173,173,174,175,173,174,175,176,1147,1148,1149,1150,1147,1148,1149,1150,1147,1148,1149,1150,1147,1148,1149,1147,1147,1148,1149,1147,1148,1149,1150,1147,1148,1149,1150,1147,1148,1149,1150,1147,1148,921,922,141,142,143,142,142,142,143,142,142,143,142,85,748,748,748,748,748,748,748,748,748,748,748,748,748,748,748,748,748,748,748,748,748,748,748,748,748,748,748,748,748,748,748,748,748,748,748,748,748,748,748,748,748,748,748,748,748,748,748,748,748,748,748,748,748,748,748,748,748,748,748,748,748,1030,1031,1031,1031,1031,1031,1031,1031,1031,1031,1031,1031,1031,1031,1031,1031,1088,1145,1088,1088,1088,1088,1088,1088,1088,1088,1088,1088,1088,1088,1088,1088,1145,1088,1088,1088,1088,1088,1088,1088,1088,1088,1088,1088,1088,1088,1088,1031,1031,1031,1031,1031,1031,1031,1031,1031,1031,1031,1087,1088,1089,1087,1088,1089,1087,1088,1089,1087,1088,1089,1738,1682,1682,1683,1684,1683,1740,1697,
1697,230,230,230,230,230,230,230,230,230,230,231,232,233,1147,1148,1149,1150,1147,1148,1149,1150,1147,1148,1149,1150,1147,1148,1149,1150,1147,1148,1149,1147,1148,1149,1150,1147,1148,1149,1150,1147,1148,1149,1150,1147,1148,864,865,198,199,198,199,200,201,200,201,201,201,199,200,201,199,200,201,199,200,201,199,200,199,200,201,199,200,201,199,200,201,199,200,201,199,200,201,199,200,201,199,200,199,200,201,199,200,201,199,200,201,199,200,201,199,200,201,199,200,199,200,201,199,200,201,199,200,201,199,200,201,199,200,201,1087,1088,1088,1088,1088,1088,1088,1088,1088,1088,1088,1088,1088,1088,1088,1088,1145,1145,1145,1145,1145,1145,1145,1145,1145,1145,1145,1145,1145,1145,1145,1145,1145,1145,1145,1145,1145,1145,1145,1145,1145,1145,1145,1145,1145,1145,1145,1088,1088,1088,1088,1088,1088,1088,1088,1088,1088,1088,1144,1145,1146,1144,1145,1146,1144,1145,1146,1144,1145,1146,1795,1739,1682,1683,1684,1683,1740,1697
</data>
 </layer>
 <objectgroup id="5" name="platforms">
  <object id="66" name="dissapears" x="2376.5" y="1031.5" width="133.5" height="38"/>
  <object id="144" name="dissapears" x="517.5" y="1023" width="83" height="16"/>
  <object id="145" name="dissapears" x="2563.25" y="736" width="133.5" height="38"/>
  <object id="153" name="dissapears" x="261.917" y="561" width="83.1667" height="15.6667"/>
 </objectgroup>
 <objectgroup id="6" name="traps">
  <object id="135" name="trap1" x="1356.5" y="1126.5" width="17.5" height="21.5"/>
  <object id="136" name="trap1" x="1334.25" y="1127" width="17.5" height="21"/>
  <object id="137" name="trap1" x="1379.75" y="1127.5" width="17.5" height="21"/>
  <object id="138" name="trap1" x="1402.75" y="1127" width="17.5" height="22"/>
 </objectgroup>
 <objectgroup id="7" name="items">
  <object id="131" name="coin" x="84.5" y="1100" width="31.5" height="26.5"/>
  <object id="132" name="coin" x="142.5" y="1101" width="24.5" height="24"/>
 </objectgroup>
 <objectgroup id="3" name="spawn">
  <object id="60" name="enemy01" x="878.75" y="1094" width="36.5" height="33.3333"/>
  <object id="61" name="enemy01" x="1657.92" y="1094" width="33.5" height="41.3333"/>
  <object id="69" name="enemy01" x="2173.75" y="643.166" width="33.5" height="41.3333"/>
 </objectgroup>
 <objectgroup id="4" name="EnemiesColliders">
  <object id="58" name="enemy_collider" x="921.636" y="1077.02" width="20.1061" height="41.2879"/>
  <object id="62" name="enemy_collider" x="1702.61" y="1094.02" width="20.1061" height="41.2879"/>
  <object id="67" name="enemy_collider" x="2221.71" y="644.326" width="20.1061" height="41.2879"/>
 </objectgroup>
 <objectgroup id="2" name="colliders">
  <object id="10" name="floor" x="781.604" y="1151.98" width="1170.4" height="128.735"/>
  <object id="23" name="win" x="3057.94" y="16.0606" width="125.833" height="148.333"/>
  <object id="40" name="floor" x="752.795" y="1088.27" width="29.5" height="193.5"/>
  <object id="43" name="floor" x="735.25" y="1165.25" width="18.0455" height="2.40909"/>
  <object id="53" name="die" x="1952.02" y="1146.7" width="1122.77" height="133.552"/>
  <object id="54" name="floor" x="2178.25" y="1001.5" width="76" height="18.1666"/>
  <object id="56" name="floor" x="2883.61" y="858.05" width="76.4989" height="17.693" rotation="0.155846"/>
  <object id="57" name="floor" x="2606.25" y="924.67" width="146.5" height="15.3333"/>
  <object id="70" name="floor" x="16.0909" y="1147.48" width="203.909" height="132.515"/>
  <object id="72" name="die" x="220.667" y="1198.67" width="533.5" height="80"/>
  <object id="73" name="floor" x="1776.17" y="704" width="606.5" height="192" rotation="2.34729e-05"/>
  <object id="77" name="floor" x="992" y="905.833" width="862" height="183.167"/>
  <object id="80" name="obs" x="1022" y="811.833" width="111.833" height="95.1667"/>
  <object id="81" name="obs" x="1133.67" y="846.667" width="67.1667" height="57.6667"/>
  <object id="82" name="floor" x="401" y="637.5" width="510" height="175"/>
  <object id="86" name="floor" x="129.75" y="493.5" width="92.5" height="17"/>
  <object id="88" name="floor" x="124.167" y="253" width="110.5" height="34"/>
  <object id="90" name="floor" x="484.333" y="170.5" width="635.667" height="147"/>
  <object id="91" name="floor" x="255.5" y="173" width="144.25" height="17"/>
  <object id="103" name="floor" x="2019.86" y="252.076" width="115.667" height="13.6667"/>
  <object id="104" name="floor" x="1410.95" y="175.348" width="474.334" height="147"/>
  <object id="105" name="floor" x="2246" y="174" width="344" height="146"/>
  <object id="106" name="floor" x="2803" y="332.5" width="75.25" height="10.5"/>
  <object id="107" name="floor" x="2692.92" y="172.167" width="71.3333" height="8"/>
  <object id="108" name="floor" x="2868.75" y="136.5" width="74" height="16.1667"/>
  <object id="109" name="floor" x="2968.75" y="211.75" height="0.25"/>
  <object id="110" name="floor" x="2962.5" y="203.75" width="75.25" height="13"/>
  <object id="112" name="floor" x="2889.33" y="1109.33" width="0.666667"/>
  <object id="113" name="floor" x="3075" y="1104.17" width="109.5" height="176.667"/>
  <object id="115" name="floor" x="3119.33" y="1062.67" width="64" height="18.6667" visible="0"/>
  <object id="121" name="floor" x="343.651" y="1124.05" width="46.9697" height="21.6364"/>
  <object id="126" name="wall" x="3183.86" y="0.227273" width="15.8182" height="1279.59"/>
  <object id="127" name="wall" x="0.136364" y="-0.0227273" width="16" height="1278.77"/>
  <object id="128" name="wall" x="16.303" y="-0.181818" width="3167.27" height="16.6667"/>
  <object id="129" name="floor" x="241.5" y="345.25" width="79" height="17.5"/>
  <object id="149" name="floor" x="2034.67" y="1082.25" width="76" height="18.1666"/>
  <object id="150" name="floor" x="2928.25" y="1147.67" width="142.167" height="20.667"/>
  <object id="151" name="floor" x="1715.25" y="704.5" width="30.5" height="163" rotation="2.34729e-05"/>
  <object id="152" name="floor" x="963" y="714.667" width="76.6667" height="17.6667"/>
  <object id="154" name="floor" x="112.083" y="623.5" width="79.5" height="17"/>
  <object id="155" name="floor" x="478" y="497.167" width="369.5" height="32"/>
 </objectgroup>
</map>
